;FLAVOR:Marlin
;TIME:25168
;Filament used: 29.878m
;Layer height: 0.28
;MINX:41.509
;MINY:61.1
;MINZ:0.28
;MAXX:193.49
;MAXY:140.705
;MAXZ:43.68
;Generated with Cura_SteamEngine 5.3.1
M140 S85
M105
M190 S85
M104 S230
M105
M109 S230
M82 ;absolute extrusion mode
M201 X500.00 Y500.00 Z100.00 E5000.00 ;Setup machine max acceleration
M203 X500.00 Y500.00 Z10.00 E50.00 ;Setup machine max feedrate
M204 P500.00 R1000.00 T500.00 ;Setup Print/Retract/Travel acceleration
M205 X8.00 Y8.00 Z0.40 E5.00 ;Setup Jerk
M220 S100 ;Reset Feedrate
M221 S100 ;Reset Flowrate

G28 ;Home

G92 E0 ;Reset Extruder
G1 Z2.0 F3000 ;Move Z Axis up
G1 X10.1 Y20 Z0.28 F5000.0 ;Move to start position
G1 X10.1 Y200.0 Z0.28 F1500.0 E15 ;Draw the first line
G1 X10.4 Y200.0 Z0.28 F5000.0 ;Move to side a little
G1 X10.4 Y20 Z0.28 F1500.0 E30 ;Draw the second line
G92 E0 ;Reset Extruder
G1 Z2.0 F3000 ;Move Z Axis up

G92 E0
G92 E0
G1 F1500 E-6.5
;LAYER_COUNT:156
;LAYER:0
M107
G0 F6000 X51.236 Y64.835 Z0.28
;TYPE:SKIRT
G1 F1500 E0
G1 F1200 X51.992 Y64.334 E0.06335
G1 X52.79 Y63.901 E0.12676
G1 X53.623 Y63.54 E0.19017
G1 X54.578 Y63.228 E0.26034
G1 X56.005 Y62.844 E0.36356
G1 X56.591 Y62.707 E0.40559
G1 X57.483 Y62.54 E0.46898
G1 X57.99 Y62.481 E0.50463
G1 X59.138 Y62.378 E0.58514
G1 X59.771 Y62.335 E0.62945
G1 X60.282 Y62.313 E0.66517
G1 X61.074 Y62.3 E0.7205
G1 X79.792 Y62.3 E2.02788
G1 X80.644 Y62.311 E2.0874
G1 X81.16 Y62.331 E2.12346
G1 X82.075 Y62.394 E2.18753
G1 X83.019 Y62.482 E2.25375
G1 X83.918 Y62.606 E2.31713
G1 X84.418 Y62.711 E2.35282
G1 X85.312 Y62.921 E2.41696
G1 X86.291 Y63.179 E2.48767
G1 X86.949 Y63.38 E2.53573
G1 X89.802 Y64.356 E2.74634
G1 X92.194 Y65.096 E2.92122
G1 X94.656 Y65.781 E3.09972
G1 X97.157 Y66.4 E3.27967
G1 X99.613 Y66.936 E3.45525
G1 X102.099 Y67.406 E3.63197
G1 X104.594 Y67.804 E3.80844
G1 X107.119 Y68.135 E3.98631
G1 X109.654 Y68.393 E4.16428
G1 X112.186 Y68.58 E4.34161
G1 X114.675 Y68.693 E4.51564
G1 X117.272 Y68.737 E4.69706
G1 X119.766 Y68.708 E4.87127
G1 X122.328 Y68.606 E5.05035
G1 X124.826 Y68.436 E5.22523
G1 X127.383 Y68.19 E5.40466
G1 X129.896 Y67.875 E5.58155
G1 X132.4 Y67.49 E5.7585
G1 X134.905 Y67.031 E5.93638
G1 X137.344 Y66.514 E6.11052
G1 X139.834 Y65.911 E6.28947
G1 X142.272 Y65.246 E6.46597
G1 X144.732 Y64.501 E6.6455
G1 X147.164 Y63.688 E6.82461
G1 X147.834 Y63.454 E6.87418
G1 X148.535 Y63.237 E6.92543
G1 X149.656 Y62.933 E7.00656
G1 X150.593 Y62.707 E7.07388
G1 X151.485 Y62.54 E7.13726
G1 X151.992 Y62.481 E7.17291
G1 X153.14 Y62.378 E7.25342
G1 X153.773 Y62.335 E7.29773
G1 X154.284 Y62.313 E7.33346
G1 X155.076 Y62.3 E7.38878
G1 X173.94 Y62.301 E8.70637
G1 X174.645 Y62.311 E8.75561
G1 X175.16 Y62.331 E8.79161
G1 X176.077 Y62.394 E8.85581
G1 X177.021 Y62.482 E8.92203
G1 X177.92 Y62.606 E8.98542
G1 X178.42 Y62.711 E9.0211
G1 X179.314 Y62.921 E9.08524
G1 X180.128 Y63.133 E9.144
G1 X181.415 Y63.561 E9.23873
G1 X182.368 Y63.993 E9.31181
G1 X183.158 Y64.439 E9.37518
G1 X183.906 Y64.954 E9.43861
G1 X184.605 Y65.532 E9.50196
G1 X185.251 Y66.169 E9.56533
G1 X185.839 Y66.861 E9.62875
G1 X186.363 Y67.602 E9.69214
G1 X186.82 Y68.386 E9.75552
G1 X187.206 Y69.207 E9.81889
G1 X187.518 Y70.059 E9.88226
G1 X187.755 Y70.935 E9.94565
G1 X187.913 Y71.829 E10.00906
G1 X187.992 Y72.733 E10.07244
G1 X187.995 Y73.516 E10.12713
G1 X187.957 Y74.663 E10.20729
G1 X187.906 Y77.277 E10.3899
G1 X187.93 Y79.838 E10.56879
G1 X188.025 Y82.373 E10.74597
G1 X188.19 Y84.89 E10.92215
G1 X188.429 Y87.435 E11.10069
G1 X188.736 Y89.927 E11.27606
G1 X189.12 Y92.461 E11.45508
G1 X189.571 Y94.96 E11.63244
G1 X190.086 Y97.412 E11.80744
G1 X190.677 Y99.879 E11.98463
G1 X191.507 Y102.916 E12.20453
G1 X191.877 Y104.182 E12.29665
G1 X192.093 Y105.064 E12.36008
G1 X192.23 Y105.961 E12.42346
G1 X192.29 Y107.052 E12.49978
G1 X192.291 Y107.602 E12.53819
G1 X192.253 Y108.509 E12.6016
G1 X192.135 Y109.409 E12.665
G1 X191.938 Y110.295 E12.72839
G1 X191.664 Y111.16 E12.79177
G1 X191.315 Y111.998 E12.85517
G1 X190.893 Y112.801 E12.91853
G1 X190.403 Y113.565 E12.98193
G1 X189.847 Y114.282 E13.0453
G1 X189.23 Y114.948 E13.10871
G1 X188.557 Y115.557 E13.17211
G1 X187.833 Y116.104 E13.23549
G1 X187.064 Y116.585 E13.29884
G1 X186.255 Y116.997 E13.36225
G1 X185.413 Y117.336 E13.42565
G1 X184.545 Y117.599 E13.489
G1 X183.656 Y117.785 E13.55243
G1 X182.755 Y117.893 E13.61582
G1 X182.28 Y117.917 E13.64904
G1 X181.67 Y117.93 E13.69165
G1 X53.574 Y117.929 E22.63868
G1 X52.876 Y117.92 E22.68744
G1 X51.97 Y117.868 E22.75082
G1 X51.072 Y117.737 E22.81421
G1 X50.189 Y117.528 E22.87759
G1 X49.328 Y117.241 E22.94098
G1 X48.496 Y116.879 E23.00435
G1 X47.698 Y116.446 E23.06777
G1 X46.942 Y115.945 E23.13111
G1 X46.233 Y115.378 E23.19452
G1 X45.576 Y114.752 E23.25791
G1 X44.978 Y114.07 E23.32126
G1 X44.441 Y113.338 E23.38467
G1 X43.971 Y112.561 E23.4481
G1 X43.571 Y111.747 E23.51144
G1 X43.245 Y110.9 E23.57483
G1 X42.994 Y110.028 E23.63821
G1 X42.821 Y109.137 E23.70161
G1 X42.727 Y108.234 E23.76502
G1 X42.709 Y107.566 E23.8117
G1 X42.712 Y107.007 E23.85074
G1 X42.757 Y106.1 E23.91417
G1 X42.881 Y105.201 E23.97755
G1 X43.123 Y104.182 E24.05071
G1 X43.879 Y101.588 E24.23943
G1 X44.509 Y99.165 E24.41429
G1 X45.082 Y96.678 E24.59255
G1 X45.588 Y94.157 E24.77214
G1 X46.012 Y91.684 E24.94739
G1 X46.369 Y89.176 E25.12433
G1 X46.656 Y86.654 E25.30162
G1 X46.871 Y84.138 E25.478
G1 X47.015 Y81.581 E25.65688
G1 X47.088 Y79.038 E25.83457
G1 X47.088 Y76.519 E26.01051
G1 X47.002 Y73.45 E26.22495
G1 X47.017 Y72.543 E26.28831
G1 X47.111 Y71.64 E26.35173
G1 X47.284 Y70.75 E26.41505
G1 X47.536 Y69.878 E26.47845
G1 X47.863 Y69.031 E26.54187
G1 X48.263 Y68.217 E26.60522
G1 X48.733 Y67.44 E26.66864
G1 X49.27 Y66.709 E26.732
G1 X49.869 Y66.027 E26.7954
G1 X50.526 Y65.401 E26.85878
G1 X51.236 Y64.835 E26.9222
G0 F6000 X50.862 Y64.366
G1 F1200 X51.661 Y63.834 E26.98925
G1 X52.551 Y63.35 E27.06001
G1 X53.384 Y62.989 E27.12342
G1 X54.422 Y62.649 E27.19971
G1 X55.868 Y62.26 E27.3043
G1 X56.481 Y62.117 E27.34826
G1 X57.373 Y61.95 E27.41165
G1 X57.936 Y61.883 E27.45125
G1 X59.097 Y61.779 E27.53266
G1 X59.745 Y61.736 E27.57802
G1 X60.272 Y61.713 E27.61487
G1 X61.064 Y61.7 E27.67019
G1 X79.8 Y61.7 E28.97883
G1 X80.667 Y61.711 E29.0394
G1 X81.201 Y61.732 E29.07672
G1 X82.131 Y61.797 E29.14184
G1 X83.101 Y61.888 E29.20989
G1 X84.041 Y62.019 E29.27618
G1 X84.555 Y62.127 E29.31286
G1 X85.465 Y62.341 E29.37816
G1 X86.466 Y62.605 E29.45046
G1 X87.143 Y62.812 E29.49991
G1 X89.996 Y63.788 E29.71052
G1 X92.355 Y64.518 E29.88299
G1 X94.817 Y65.203 E30.06149
G1 X97.285 Y65.814 E30.23907
G1 X99.724 Y66.346 E30.41343
G1 X102.194 Y66.813 E30.58901
G1 X104.689 Y67.211 E30.76548
G1 X107.188 Y67.539 E30.94152
G1 X109.715 Y67.796 E31.11893
G1 X112.222 Y67.981 E31.29452
G1 X114.685 Y68.093 E31.46672
G1 X117.275 Y68.137 E31.64765
G1 X119.742 Y68.108 E31.81997
G1 X122.298 Y68.006 E31.99864
G1 X124.785 Y67.837 E32.17275
G1 X127.317 Y67.594 E32.35042
G1 X129.805 Y67.282 E32.52555
G1 X132.305 Y66.898 E32.70222
G1 X134.783 Y66.443 E32.87819
G1 X137.22 Y65.927 E33.05218
G1 X139.676 Y65.332 E33.22868
G1 X142.114 Y64.667 E33.40519
G1 X144.547 Y63.93 E33.58275
G1 X146.974 Y63.119 E33.76148
G1 X147.657 Y62.881 E33.812
G1 X148.378 Y62.658 E33.86471
G1 X149.515 Y62.35 E33.94699
G1 X150.483 Y62.117 E34.01653
G1 X151.375 Y61.95 E34.07992
G1 X151.938 Y61.883 E34.11952
G1 X153.099 Y61.779 E34.20094
G1 X153.747 Y61.736 E34.2463
G1 X154.274 Y61.713 E34.28314
G1 X155.076 Y61.7 E34.33916
G1 X173.949 Y61.701 E35.65737
G1 X174.668 Y61.711 E35.7076
G1 X175.201 Y61.732 E35.74485
G1 X176.133 Y61.797 E35.81011
G1 X177.103 Y61.888 E35.87816
G1 X178.043 Y62.019 E35.94445
G1 X178.557 Y62.127 E35.98113
G1 X179.465 Y62.34 E36.04627
G1 X180.279 Y62.552 E36.10503
G1 X181.663 Y63.015 E36.20696
G1 X182.616 Y63.447 E36.28004
G1 X183.498 Y63.945 E36.35079
G1 X184.246 Y64.46 E36.41422
G1 X185.026 Y65.105 E36.48491
G1 X185.708 Y65.78 E36.55193
G1 X186.296 Y66.472 E36.61536
G1 X186.853 Y67.256 E36.68253
G1 X187.363 Y68.131 E36.75327
G1 X187.749 Y68.952 E36.81664
G1 X188.097 Y69.902 E36.8873
G1 X188.346 Y70.831 E36.95448
G1 X188.511 Y71.777 E37.02155
G1 X188.59 Y72.681 E37.08493
G1 X188.595 Y73.536 E37.14465
G1 X188.557 Y74.683 E37.22481
G1 X188.506 Y77.289 E37.40687
G1 X188.53 Y79.816 E37.58338
G1 X188.624 Y82.334 E37.75937
G1 X188.789 Y84.851 E37.93555
G1 X189.024 Y87.362 E38.1117
G1 X189.329 Y89.837 E38.28588
G1 X189.71 Y92.354 E38.46369
G1 X190.158 Y94.837 E38.63991
G1 X190.669 Y97.272 E38.81369
G1 X191.256 Y99.721 E38.98959
G1 X192.083 Y102.748 E39.20877
G1 X192.46 Y104.039 E39.3027
G1 X192.676 Y104.921 E39.36613
G1 X192.829 Y105.928 E39.43727
G1 X192.89 Y107.051 E39.51582
G1 X192.89 Y107.627 E39.55606
G1 X192.848 Y108.587 E39.62317
G1 X192.721 Y109.539 E39.69025
G1 X192.524 Y110.425 E39.75365
G1 X192.218 Y111.391 E39.82443
G1 X191.869 Y112.229 E39.88783
G1 X191.398 Y113.125 E39.95853
G1 X190.877 Y113.933 E40.02568
G1 X190.287 Y114.69 E40.09272
G1 X189.633 Y115.393 E40.15978
G1 X188.919 Y116.036 E40.2269
G1 X188.195 Y116.583 E40.29027
G1 X187.382 Y117.094 E40.35734
G1 X186.479 Y117.554 E40.42813
G1 X185.637 Y117.893 E40.49153
G1 X184.668 Y118.186 E40.56223
G1 X183.727 Y118.381 E40.62936
G1 X182.826 Y118.489 E40.69274
G1 X182.293 Y118.517 E40.73002
G1 X181.683 Y118.53 E40.77263
G1 X53.566 Y118.529 E49.72113
G1 X52.842 Y118.519 E49.7717
G1 X51.883 Y118.462 E49.8388
G1 X50.985 Y118.331 E49.90219
G1 X50.051 Y118.112 E49.96919
G1 X49.138 Y117.81 E50.03636
G1 X48.257 Y117.429 E50.1034
G1 X47.367 Y116.946 E50.17413
G1 X46.567 Y116.414 E50.24124
G1 X45.858 Y115.847 E50.30465
G1 X45.125 Y115.148 E50.37539
G1 X44.494 Y114.425 E50.44242
G1 X43.957 Y113.693 E50.50583
G1 X43.458 Y112.872 E50.57293
G1 X43.011 Y111.963 E50.64368
G1 X42.668 Y111.066 E50.71076
G1 X42.417 Y110.194 E50.77414
G1 X42.224 Y109.199 E50.84493
G1 X42.127 Y108.25 E50.91156
G1 X42.109 Y107.563 E50.95956
G1 X42.113 Y106.977 E51.00049
G1 X42.158 Y106.07 E51.06392
G1 X42.297 Y105.062 E51.13499
G1 X42.539 Y104.043 E51.20814
G1 X43.298 Y101.437 E51.39773
G1 X43.928 Y99.014 E51.57259
G1 X44.497 Y96.543 E51.7497
G1 X45 Y94.039 E51.92809
G1 X45.418 Y91.599 E52.101
G1 X45.775 Y89.091 E52.27794
G1 X46.058 Y86.603 E52.45283
G1 X46.273 Y84.087 E52.62921
G1 X46.415 Y81.564 E52.80571
G1 X46.488 Y79.021 E52.9834
G1 X46.488 Y76.519 E53.15816
G1 X46.402 Y73.44 E53.3733
G1 X46.42 Y72.481 E53.44029
G1 X46.514 Y71.578 E53.5037
G1 X46.695 Y70.636 E53.5707
G1 X46.976 Y69.662 E53.64151
G1 X47.303 Y68.815 E53.70492
G1 X47.75 Y67.906 E53.77567
G1 X48.249 Y67.085 E53.84278
G1 X48.819 Y66.313 E53.9098
G1 X49.418 Y65.631 E53.9732
G1 X50.152 Y64.932 E54.044
G1 X50.862 Y64.366 E54.10742
G0 F6000 X50.529 Y63.867
G1 F1200 X51.374 Y63.307 E54.17822
G1 X52.312 Y62.799 E54.25273
G1 X53.145 Y62.438 E54.31614
G1 X54.235 Y62.079 E54.3963
G1 X55.732 Y61.676 E54.50458
G1 X56.371 Y61.527 E54.55041
G1 X57.302 Y61.354 E54.61655
G1 X57.882 Y61.285 E54.65735
G1 X59.057 Y61.18 E54.73974
G1 X59.719 Y61.137 E54.78608
G1 X60.262 Y61.113 E54.82404
G1 X61.054 Y61.1 E54.87937
G1 X79.808 Y61.1 E56.18926
G1 X80.691 Y61.111 E56.25094
G1 X81.243 Y61.133 E56.28953
G1 X82.173 Y61.198 E56.35464
G1 X83.184 Y61.294 E56.42558
G1 X84.164 Y61.432 E56.4947
G1 X84.692 Y61.543 E56.53239
G1 X85.618 Y61.761 E56.59883
G1 X86.641 Y62.031 E56.67273
G1 X87.337 Y62.244 E56.72357
G1 X90.19 Y63.22 E56.93418
G1 X92.516 Y63.94 E57.10425
G1 X94.978 Y64.625 E57.28274
G1 X97.413 Y65.228 E57.45795
G1 X99.835 Y65.756 E57.63109
G1 X102.289 Y66.22 E57.80553
G1 X104.784 Y66.618 E57.982
G1 X107.257 Y66.943 E58.15622
G1 X109.776 Y67.199 E58.33307
G1 X112.258 Y67.382 E58.5069
G1 X114.695 Y67.493 E58.67729
G1 X117.278 Y67.537 E58.85773
G1 X119.718 Y67.508 E59.02817
G1 X122.268 Y67.406 E59.20642
G1 X124.744 Y67.238 E59.37975
G1 X127.251 Y66.998 E59.55566
G1 X129.714 Y66.689 E59.72904
G1 X132.21 Y66.306 E59.90541
G1 X134.661 Y65.856 E60.07947
G1 X137.096 Y65.34 E60.25332
G1 X139.518 Y64.753 E60.42739
G1 X141.956 Y64.088 E60.60389
G1 X144.362 Y63.359 E60.77949
G1 X146.777 Y62.552 E60.95734
G1 X147.48 Y62.308 E61.00931
G1 X148.221 Y62.079 E61.06348
G1 X149.375 Y61.767 E61.14698
G1 X150.373 Y61.527 E61.21867
G1 X151.304 Y61.354 E61.28481
G1 X151.884 Y61.285 E61.32561
G1 X153.059 Y61.18 E61.40801
G1 X153.721 Y61.137 E61.45434
G1 X154.264 Y61.113 E61.4923
G1 X155.076 Y61.1 E61.54903
G1 X173.957 Y61.101 E62.86779
G1 X174.692 Y61.111 E62.91914
G1 X175.243 Y61.133 E62.95765
G1 X176.175 Y61.198 E63.02291
G1 X177.186 Y61.294 E63.09384
G1 X178.166 Y61.432 E63.16296
G1 X178.694 Y61.543 E63.20065
G1 X179.616 Y61.759 E63.26679
G1 X180.43 Y61.971 E63.32554
G1 X181.853 Y62.446 E63.43032
G1 X182.864 Y62.901 E63.50776
G1 X183.838 Y63.451 E63.58589
G1 X184.586 Y63.966 E63.64932
G1 X185.448 Y64.679 E63.72745
G1 X186.165 Y65.391 E63.79803
G1 X186.785 Y66.124 E63.86509
G1 X187.342 Y66.908 E63.93226
G1 X187.906 Y67.876 E64.01051
G1 X188.292 Y68.697 E64.07387
G1 X188.677 Y69.747 E64.15199
G1 X188.926 Y70.676 E64.21917
G1 X189.109 Y71.725 E64.29354
G1 X189.188 Y72.629 E64.35692
G1 X189.195 Y73.556 E64.42167
G1 X189.157 Y74.703 E64.50183
G1 X189.106 Y77.301 E64.68333
G1 X189.13 Y79.794 E64.85746
G1 X189.223 Y82.295 E65.03227
G1 X189.388 Y84.812 E65.20845
G1 X189.619 Y87.289 E65.38221
G1 X189.922 Y89.747 E65.55519
G1 X190.3 Y92.247 E65.73179
G1 X190.745 Y94.714 E65.90688
G1 X191.252 Y97.132 E66.07944
G1 X191.835 Y99.563 E66.25405
G1 X192.659 Y102.58 E66.4725
G1 X193.043 Y103.896 E66.56825
G1 X193.259 Y104.778 E66.63167
G1 X193.428 Y105.895 E66.71058
G1 X193.49 Y107.051 E66.79144
G1 X193.489 Y107.653 E66.83348
G1 X193.443 Y108.666 E66.90431
G1 X193.307 Y109.669 E66.97501
G1 X193.11 Y110.555 E67.0384
G1 X192.772 Y111.622 E67.11658
G1 X192.423 Y112.46 E67.17998
G1 X191.929 Y113.404 E67.2544
G1 X191.35 Y114.302 E67.32903
G1 X190.726 Y115.099 E67.39973
G1 X190.035 Y115.839 E67.47045
G1 X189.281 Y116.515 E67.54118
G1 X188.557 Y117.062 E67.60456
G1 X187.654 Y117.629 E67.67903
G1 X186.703 Y118.111 E67.7535
G1 X185.861 Y118.45 E67.8169
G1 X184.79 Y118.774 E67.89505
G1 X183.849 Y118.969 E67.96217
G1 X182.897 Y119.085 E68.02916
G1 X182.306 Y119.117 E68.0705
G1 X181.683 Y119.13 E68.11402
G1 X53.558 Y119.129 E77.06308
G1 X52.806 Y119.118 E77.11561
G1 X51.796 Y119.056 E77.18628
G1 X50.898 Y118.925 E77.24967
G1 X49.863 Y118.682 E77.32393
G1 X48.9 Y118.361 E77.39483
G1 X48.019 Y117.98 E77.46187
G1 X47.035 Y117.446 E77.54007
G1 X46.192 Y116.883 E77.61087
G1 X45.483 Y116.316 E77.67428
G1 X44.673 Y115.543 E77.75248
G1 X44.01 Y114.78 E77.82308
G1 X43.444 Y114.005 E77.89011
G1 X42.945 Y113.184 E77.95722
G1 X42.473 Y112.228 E78.03169
G1 X42.091 Y111.232 E78.10619
G1 X41.84 Y110.36 E78.16957
G1 X41.627 Y109.26 E78.24783
G1 X41.527 Y108.266 E78.31761
G1 X41.509 Y107.559 E78.36701
G1 X41.514 Y106.947 E78.40975
G1 X41.559 Y106.04 E78.47318
G1 X41.713 Y104.923 E78.55194
G1 X41.955 Y103.904 E78.62509
G1 X42.717 Y101.286 E78.81554
G1 X43.347 Y98.863 E78.9904
G1 X43.912 Y96.408 E79.16636
G1 X44.412 Y93.921 E79.34354
G1 X44.824 Y91.514 E79.51411
G1 X45.181 Y89.006 E79.69105
G1 X45.46 Y86.552 E79.86355
G1 X45.675 Y84.036 E80.03993
G1 X45.815 Y81.547 E80.21405
G1 X45.888 Y79.004 E80.39174
G1 X45.888 Y76.519 E80.56531
G1 X45.802 Y73.429 E80.78122
G1 X45.823 Y72.419 E80.85178
G1 X45.917 Y71.516 E80.91519
G1 X46.106 Y70.523 E80.98579
G1 X46.416 Y69.446 E81.06407
G1 X46.743 Y68.599 E81.12749
G1 X47.237 Y67.594 E81.2057
G1 X47.736 Y66.773 E81.27281
G1 X48.368 Y65.917 E81.34713
G1 X48.967 Y65.235 E81.41053
G1 X49.778 Y64.463 E81.48873
G1 X50.529 Y63.867 E81.5557
G1 F1500 E75.0557
;MESH:optimal_mold.STL
G0 F6000 X81.266 Y71.995
G0 X81.193 Y72.907
;TYPE:WALL-OUTER
G1 F1500 E81.5557
G1 F1366.2 X80.492 Y72.879 E81.59874
G1 F1292.6 X60.506 Y72.879 E82.89464
G1 F1361.1 X59.805 Y72.907 E82.93785
G1 F1500 E76.43785
G0 F6000 X59.805 Y73.822
G0 X175.195 Y73.822
G0 X175.195 Y72.907
G1 F1500 E82.93785
G1 F1366.2 X174.494 Y72.879 E82.98089
G1 F1292.6 X154.508 Y72.879 E84.27679
G1 F1361.1 X153.807 Y72.907 E84.31999
G1 F1500 E77.81999
;MESH:optimal_base_mold.STL
G0 F6000 X153.807 Y73.822
G0 X53.28 Y106.406
G0 X53.28 Y107.35
;TYPE:WALL-OUTER
