;FLAVOR:Marlin
;TIME:5646
;Filament used: 7.31821m
;Layer height: 0.28
;MINX:41.509
;MINY:95.571
;MINZ:0.28
;MAXX:193.491
;MAXY:130.927
;MAXZ:19.04
;Generated with Cura_SteamEngine 5.3.1
M140 S90
M105
M190 S90
M104 S230
M105
M109 S230
M82 ;absolute extrusion mode
M201 X500.00 Y500.00 Z100.00 E5000.00 ;Setup machine max acceleration
M203 X500.00 Y500.00 Z10.00 E50.00 ;Setup machine max feedrate
M204 P500.00 R1000.00 T500.00 ;Setup Print/Retract/Travel acceleration
M205 X8.00 Y8.00 Z0.40 E5.00 ;Setup Jerk
M220 S100 ;Reset Feedrate
M221 S100 ;Reset Flowrate

G28 ;Home

G92 E0 ;Reset Extruder
G1 Z2.0 F3000 ;Move Z Axis up
G1 X10.1 Y20 Z0.28 F5000.0 ;Move to start position
G1 X10.1 Y200.0 Z0.28 F1500.0 E15 ;Draw the first line
G1 X10.4 Y200.0 Z0.28 F5000.0 ;Move to side a little
G1 X10.4 Y20 Z0.28 F1500.0 E30 ;Draw the second line
G92 E0 ;Reset Extruder
G1 Z2.0 F3000 ;Move Z Axis up

G92 E0
G92 E0
G1 F1500 E-6.5
;LAYER_COUNT:68
;LAYER:0
M107
G0 F6000 X48.78 Y97.688 Z0.28
;TYPE:SKIRT
G1 F1500 E0
G1 F1200 X49.623 Y97.353 E0.06336
G1 X50.493 Y97.092 E0.1268
G1 X51.382 Y96.91 E0.19018
G1 X52.72 Y96.784 E0.28405
G1 X53.33 Y96.771 E0.32667
G1 X181.441 Y96.772 E9.27474
G1 X182.139 Y96.782 E9.3235
G1 X183.045 Y96.835 E9.38689
G1 X183.942 Y96.968 E9.45023
G1 X184.825 Y97.179 E9.51364
G1 X185.686 Y97.466 E9.57703
G1 X186.518 Y97.829 E9.64043
G1 X187.314 Y98.263 E9.70376
G1 X188.07 Y98.766 E9.76718
G1 X188.778 Y99.334 E9.83058
G1 X189.434 Y99.961 E9.89396
G1 X190.032 Y100.644 E9.95737
G1 X190.567 Y101.377 E10.02075
G1 X191.036 Y102.154 E10.08414
G1 X191.435 Y102.969 E10.14752
G1 X191.76 Y103.816 E10.21089
G1 X192.009 Y104.689 E10.27429
G1 X192.181 Y105.58 E10.33767
G1 X192.274 Y106.483 E10.40108
G1 X192.291 Y107.1 E10.44419
G1 X192.29 Y107.64 E10.48191
G1 X192.248 Y108.547 E10.54533
G1 X192.127 Y109.446 E10.60868
G1 X191.927 Y110.331 E10.67206
G1 X191.65 Y111.195 E10.73543
G1 X191.298 Y112.032 E10.79885
G1 X190.873 Y112.834 E10.86225
G1 X190.38 Y113.596 E10.92564
G1 X189.822 Y114.311 E10.98899
G1 X189.202 Y114.974 E11.05239
G1 X188.527 Y115.581 E11.11579
G1 X187.801 Y116.125 E11.17916
G1 X187.03 Y116.604 E11.24256
G1 X186.22 Y117.013 E11.30593
G1 X185.376 Y117.348 E11.36936
G1 X184.507 Y117.609 E11.43273
G1 X183.618 Y117.791 E11.49611
G1 X182.28 Y117.917 E11.58998
G1 X181.67 Y117.93 E11.6326
G1 X53.574 Y117.929 E20.57963
G1 X52.876 Y117.92 E20.62838
G1 X51.97 Y117.868 E20.69177
G1 X51.072 Y117.737 E20.75516
G1 X50.189 Y117.528 E20.81853
G1 X49.328 Y117.241 E20.88192
G1 X48.496 Y116.879 E20.9453
G1 X47.698 Y116.446 E21.00871
G1 X46.942 Y115.945 E21.07206
G1 X46.233 Y115.378 E21.13547
G1 X45.576 Y114.752 E21.19885
G1 X44.978 Y114.07 E21.26221
G1 X44.441 Y113.338 E21.32562
G1 X43.971 Y112.561 E21.38904
G1 X43.571 Y111.747 E21.45239
G1 X43.245 Y110.9 E21.51578
G1 X42.994 Y110.028 E21.57916
G1 X42.821 Y109.137 E21.64256
G1 X42.727 Y108.234 E21.70597
G1 X42.709 Y107.602 E21.75013
G1 X42.71 Y107.061 E21.78792
G1 X42.752 Y106.154 E21.85133
G1 X42.873 Y105.255 E21.91469
G1 X43.073 Y104.37 E21.97806
G1 X43.35 Y103.506 E22.04144
G1 X43.702 Y102.669 E22.10486
G1 X44.127 Y101.867 E22.16825
G1 X44.62 Y101.105 E22.23165
G1 X45.178 Y100.39 E22.29499
G1 X45.798 Y99.727 E22.35839
G1 X46.473 Y99.12 E22.4218
G1 X47.199 Y98.576 E22.48516
G1 X47.97 Y98.097 E22.54856
G1 X48.78 Y97.688 E22.61194
G0 F6000 X48.558 Y97.13
G1 F1200 X49.401 Y96.795 E22.6753
G1 X50.321 Y96.517 E22.74243
G1 X51.262 Y96.322 E22.80955
G1 X52.707 Y96.184 E22.91094
G1 X53.33 Y96.171 E22.95446
G1 X181.45 Y96.172 E31.90317
G1 X182.174 Y96.183 E31.95374
G1 X183.133 Y96.241 E32.02085
G1 X184.03 Y96.374 E32.08418
G1 X184.964 Y96.595 E32.15122
G1 X185.926 Y96.916 E32.22206
G1 X186.805 Y97.302 E32.28911
G1 X187.646 Y97.763 E32.3561
G1 X188.402 Y98.266 E32.41952
G1 X189.193 Y98.9 E32.49032
G1 X189.849 Y99.527 E32.55371
G1 X190.517 Y100.29 E32.62454
G1 X191.052 Y101.023 E32.68792
G1 X191.55 Y101.844 E32.75499
G1 X191.974 Y102.705 E32.82202
G1 X192.337 Y103.651 E32.8928
G1 X192.586 Y104.524 E32.9562
G1 X192.778 Y105.519 E33.02698
G1 X192.874 Y106.466 E33.09347
G1 X192.891 Y107.101 E33.13783
G1 X192.889 Y107.668 E33.17744
G1 X192.843 Y108.627 E33.2445
G1 X192.722 Y109.526 E33.30786
G1 X192.512 Y110.463 E33.37493
G1 X192.203 Y111.428 E33.4457
G1 X191.851 Y112.265 E33.50912
G1 X191.377 Y113.16 E33.57986
G1 X190.884 Y113.922 E33.64325
G1 X190.26 Y114.721 E33.71406
G1 X189.64 Y115.384 E33.77746
G1 X188.887 Y116.061 E33.84818
G1 X188.118 Y116.635 E33.91521
G1 X187.347 Y117.114 E33.97861
G1 X186.441 Y117.571 E34.04948
G1 X185.549 Y117.923 E34.11646
G1 X184.68 Y118.184 E34.17984
G1 X183.738 Y118.379 E34.24703
G1 X182.293 Y118.517 E34.34841
G1 X181.67 Y118.53 E34.39194
G1 X53.566 Y118.529 E43.33953
G1 X52.842 Y118.519 E43.3901
G1 X51.883 Y118.462 E43.4572
G1 X50.985 Y118.331 E43.52059
G1 X50.051 Y118.112 E43.58759
G1 X49.138 Y117.81 E43.65476
G1 X48.257 Y117.429 E43.7218
G1 X47.367 Y116.946 E43.79253
G1 X46.567 Y116.414 E43.85963
G1 X45.858 Y115.847 E43.92304
G1 X45.125 Y115.148 E43.99379
G1 X44.494 Y114.425 E44.06081
G1 X43.957 Y113.693 E44.12422
G1 X43.458 Y112.872 E44.19133
G1 X43.011 Y111.963 E44.26208
G1 X42.668 Y111.066 E44.32916
G1 X42.417 Y110.194 E44.39253
G1 X42.224 Y109.199 E44.46333
G1 X42.127 Y108.251 E44.52989
G1 X42.109 Y107.601 E44.5753
G1 X42.111 Y107.033 E44.61498
G1 X42.157 Y106.074 E44.68204
G1 X42.278 Y105.175 E44.7454
G1 X42.488 Y104.238 E44.81246
G1 X42.797 Y103.273 E44.88324
G1 X43.149 Y102.436 E44.94666
G1 X43.623 Y101.541 E45.0174
G1 X44.116 Y100.779 E45.08079
G1 X44.74 Y99.98 E45.1516
G1 X45.36 Y99.317 E45.215
G1 X46.113 Y98.64 E45.28572
G1 X46.882 Y98.066 E45.35275
G1 X47.653 Y97.587 E45.41615
G1 X48.558 Y97.13 E45.48696
G0 F6000 X48.336 Y96.572
G1 F1200 X49.179 Y96.237 E45.55032
G1 X50.199 Y95.929 E45.62474
G1 X51.14 Y95.734 E45.69186
G1 X52.694 Y95.584 E45.80091
G1 X53.33 Y95.571 E45.84534
G1 X181.459 Y95.572 E54.79467
G1 X182.21 Y95.584 E54.84713
G1 X183.221 Y95.647 E54.91789
G1 X184.118 Y95.78 E54.98122
G1 X185.102 Y96.011 E55.05182
G1 X186.116 Y96.347 E55.12643
G1 X187.093 Y96.776 E55.20096
G1 X187.978 Y97.263 E55.27151
G1 X188.734 Y97.766 E55.33494
G1 X189.608 Y98.466 E55.41315
G1 X190.264 Y99.093 E55.47653
G1 X191.002 Y99.936 E55.55479
G1 X191.537 Y100.669 E55.61817
G1 X192.063 Y101.533 E55.68882
G1 X192.534 Y102.49 E55.76332
G1 X192.914 Y103.486 E55.83778
G1 X193.163 Y104.359 E55.90119
G1 X193.375 Y105.458 E55.97936
G1 X193.474 Y106.45 E56.049
G1 X193.491 Y107.103 E56.09462
G1 X193.488 Y107.697 E56.13611
G1 X193.438 Y108.707 E56.20674
G1 X193.317 Y109.606 E56.2701
G1 X193.083 Y110.646 E56.34455
G1 X192.756 Y111.661 E56.41904
G1 X192.404 Y112.498 E56.48246
G1 X191.881 Y113.486 E56.56054
G1 X191.388 Y114.248 E56.62393
G1 X190.698 Y115.131 E56.7022
G1 X190.078 Y115.794 E56.7656
G1 X189.246 Y116.542 E56.84375
G1 X188.435 Y117.145 E56.91433
G1 X187.664 Y117.624 E56.97773
G1 X186.711 Y118.107 E57.05236
G1 X185.722 Y118.498 E57.12664
G1 X184.802 Y118.772 E57.19368
G1 X183.86 Y118.967 E57.26087
G1 X182.306 Y119.117 E57.36992
G1 X181.683 Y119.13 E57.41344
G1 X53.558 Y119.129 E66.3625
G1 X52.806 Y119.118 E66.41503
G1 X51.796 Y119.056 E66.48571
G1 X50.898 Y118.925 E66.54909
G1 X49.863 Y118.682 E66.62335
G1 X48.9 Y118.361 E66.69425
G1 X48.019 Y117.98 E66.76129
G1 X47.035 Y117.446 E66.83949
G1 X46.192 Y116.883 E66.91029
G1 X45.483 Y116.316 E66.9737
G1 X44.673 Y115.543 E67.05191
G1 X44.01 Y114.78 E67.12251
G1 X43.444 Y114.005 E67.18954
G1 X42.945 Y113.184 E67.25664
G1 X42.473 Y112.228 E67.33111
G1 X42.091 Y111.232 E67.40562
G1 X41.84 Y110.36 E67.469
G1 X41.627 Y109.26 E67.54725
G1 X41.527 Y108.268 E67.61689
G1 X41.509 Y107.599 E67.66364
G1 X41.512 Y107.004 E67.7052
G1 X41.562 Y105.994 E67.77583
G1 X41.683 Y105.095 E67.83919
G1 X41.917 Y104.055 E67.91364
G1 X42.244 Y103.04 E67.98812
G1 X42.596 Y102.203 E68.05154
G1 X43.119 Y101.215 E68.12962
G1 X43.612 Y100.453 E68.19302
G1 X44.302 Y99.57 E68.27129
G1 X44.922 Y98.907 E68.33469
G1 X45.754 Y98.159 E68.41283
G1 X46.565 Y97.556 E68.48342
G1 X47.336 Y97.077 E68.54682
G1 X48.336 Y96.572 E68.62507
G1 F1500 E62.12507
;MESH:optimal_base_mold.STL
G0 F6000 X181.721 Y106.406
G0 X181.721 Y107.35
;TYPE:WALL-OUTER
G1 F1500 E68.62507
G1 F1290.3 X117.5 Y107.35 E72.79667
G1 F1288 X53.279 Y107.35 E76.97575
;MESH:NONMESH
G0 F300 X53.279 Y107.35 Z0.56
G0 F6000 X53.419 Y108.256
;TIME_ELAPSED:62.085422
;LAYER:1
M106 S85
;TYPE:WALL-OUTER
;MESH:optimal_base_mold.STL
G1 F965.4 X53.419 Y107.416 E77.0578
G1 X181.58 Y107.416 E89.57507
G1 F964.3 X181.58 Y108.255 E89.65711
G1 F965.4 X53.419 Y108.256 E102.17439
;MESH:NONMESH
G0 F300 X53.419 Y108.256 Z0.84
G0 F7500 X53.999 Y108.721
;TIME_ELAPSED:78.318481
;LAYER:2
M106 S170
;TYPE:WALL-INNER
;MESH:optimal_base_mold.STL
G1 F1126.4 X181 Y108.72 E113.98701
G1 F1125 X181 Y107.921 E114.06142
G1 F1126.4 X53.999 Y107.921 E125.87403
G1 X53.999 Y108.721 E125.94844
G1 F1500 E119.44844
G0 F9000 X54.27 Y108.45
G0 X181.33 Y109.05
G0 X181.7 Y109.42
;TYPE:WALL-OUTER
G1 F1500 E125.94844
G1 X181.7 Y107.221 E126.10203
G1 X53.3 Y107.222 E135.07029
G1 X53.3 Y109.42 E135.22381
G1 X181.7 Y109.42 E144.19208
G1 F1500 E137.69208
;MESH:NONMESH
G0 F300 X181.7 Y109.42 Z1.12
G0 F9000 X181.33 Y109.05
G0 X53.901 Y109.02
G0 X53.901 Y109.865
;TIME_ELAPSED:105.904812
;LAYER:3
M106 S255
;TYPE:WALL-INNER
;MESH:optimal_base_mold.STL
G1 F1500 E144.19208
G1 X181.1 Y109.865 E153.07646
G1 X181.1 Y107.746 E153.22446
G1 X53.901 Y107.747 E162.10884
G1 X53.901 Y109.865 E162.25677
G0 F9000 X53.301 Y110.465
;TYPE:WALL-OUTER
G1 F1500 X181.7 Y110.465 E171.22496
G1 X181.7 Y107.146 E171.45678
G1 X53.301 Y107.147 E180.42498
G1 X53.301 Y110.465 E180.65673
G0 F9000 X53.67 Y110.095
G0 X54.101 Y109.216
G0 X54.55 Y109.216
;TYPE:SKIN
G1 F1098.9 X54.55 Y108.396 E180.73491
G1 X180.451 Y108.396 E192.73833
G1 X180.451 Y109.216 E192.81651
G1 X54.55 Y109.216 E204.81993
;MESH:NONMESH
G0 F300 X54.55 Y109.216 Z1.4
G0 F9000 X54.101 Y109.216
G0 X53.901 Y110.065
G0 X53.901 Y110.91
;TIME_ELAPSED:141.612038
;LAYER:4
;TYPE:WALL-INNER
;MESH:optimal_base_mold.STL
G1 F1500 X181.1 Y110.91 E213.70431
G1 X181.1 Y107.672 E213.93047
G1 X53.901 Y107.672 E222.81485
G1 X53.901 Y110.91 E223.04101
G0 F9000 X53.301 Y111.51
;TYPE:WALL-OUTER
G1 F1500 X181.7 Y111.51 E232.0092
G1 X181.7 Y107.072 E232.31918
G1 X53.301 Y107.072 E241.28738
G1 X53.301 Y111.51 E241.59735
G0 F9000 X53.67 Y111.14
G0 X54.101 Y110.37
G0 X54.441 Y110.37
;TYPE:SKIN
G1 F1500 X54.441 Y108.212 E241.74808
G1 X180.56 Y108.212 E250.55702
G1 X180.56 Y110.37 E250.70775
G1 X54.441 Y110.37 E259.5167
G0 F9000 X54.74 Y109.895
G1 F1500 X54.914 Y110.068 E259.53383
G0 F9000 X55.763 Y110.068
G1 F1500 X54.74 Y109.046 E259.63483
G0 F9000 X55.054 Y108.511
G1 F1500 X56.611 Y110.068 E259.78863
G0 F9000 X57.46 Y110.068
G1 F1500 X55.903 Y108.511 E259.94243
G0 F9000 X56.751 Y108.511
G1 F1500 X58.308 Y110.068 E260.09622
G0 F9000 X59.157 Y110.068
G1 F1500 X57.6 Y108.511 E260.25002
G0 F9000 X58.448 Y108.511
G1 F1500 X60.005 Y110.068 E260.40382
G0 F9000 X60.854 Y110.068
G1 F1500 X59.297 Y108.511 E260.55761
G0 F9000 X60.145 Y108.511
G1 F1500 X61.702 Y110.068 E260.71141
G0 F9000 X62.551 Y110.068
G1 F1500 X60.994 Y108.511 E260.86521
G0 F9000 X61.842 Y108.511
G1 F1500 X63.399 Y110.068 E261.019
G0 F9000 X64.248 Y110.068
G1 F1500 X62.691 Y108.511 E261.1728
G0 F9000 X63.539 Y108.511
G1 F1500 X65.096 Y110.068 E261.3266
G0 F9000 X65.945 Y110.068
G1 F1500 X64.388 Y108.511 E261.48039
G0 F9000 X65.236 Y108.511
G1 F1500 X66.794 Y110.068 E261.63424
G0 F9000 X67.642 Y110.068
G1 F1500 X66.085 Y108.511 E261.78804
G0 F9000 X66.934 Y108.511
G1 F1500 X68.491 Y110.068 E261.94183
G0 F9000 X69.339 Y110.068
G1 F1500 X67.782 Y108.511 E262.09563
G0 F9000 X68.631 Y108.511
G1 F1500 X70.188 Y110.068 E262.24943
G0 F9000 X71.036 Y110.068
G1 F1500 X69.479 Y108.511 E262.40322
G0 F9000 X70.328 Y108.511
G1 F1500 X71.885 Y110.068 E262.55702
G0 F9000 X72.733 Y110.068
G1 F1500 X71.176 Y108.511 E262.71082
G0 F9000 X72.025 Y108.511
G1 F1500 X73.582 Y110.068 E262.86461
G0 F9000 X74.43 Y110.068
G1 F1500 X72.873 Y108.511 E263.01841
G0 F9000 X73.722 Y108.511
G1 F1500 X75.279 Y110.068 E263.17221
G0 F9000 X76.127 Y110.068
G1 F1500 X74.57 Y108.511 E263.326
G0 F9000 X75.419 Y108.511
G1 F1500 X76.976 Y110.068 E263.4798
G0 F9000 X77.824 Y110.068
G1 F1500 X76.267 Y108.511 E263.6336
G0 F9000 X77.116 Y108.511
G1 F1500 X78.673 Y110.068 E263.78739
G0 F9000 X79.521 Y110.068
G1 F1500 X77.964 Y108.511 E263.94119
G0 F9000 X78.813 Y108.511
G1 F1500 X80.37 Y110.068 E264.09499
G0 F9000 X81.218 Y110.068
G1 F1500 X79.661 Y108.511 E264.24878
G0 F9000 X80.51 Y108.511
G1 F1500 X82.067 Y110.068 E264.40258
G0 F9000 X82.916 Y110.068
G1 F1500 X81.358 Y108.511 E264.55643
G0 F9000 X82.207 Y108.511
G1 F1500 X83.764 Y110.068 E264.71022
G0 F9000 X84.613 Y110.068
G1 F1500 X83.056 Y108.511 E264.86402
G0 F9000 X83.904 Y108.511
G1 F1500 X85.461 Y110.068 E265.01782
G0 F9000 X86.31 Y110.068
G1 F1500 X84.753 Y108.511 E265.17161
G0 F9000 X85.601 Y108.511
G1 F1500 X87.158 Y110.068 E265.32541
G0 F9000 X88.007 Y110.068
G1 F1500 X86.45 Y108.511 E265.47921
G0 F9000 X87.298 Y108.511
G1 F1500 X88.855 Y110.068 E265.633
G0 F9000 X89.704 Y110.068
G1 F1500 X88.147 Y108.511 E265.7868
G0 F9000 X88.995 Y108.511
G1 F1500 X90.552 Y110.068 E265.9406
G0 F9000 X91.401 Y110.068
G1 F1500 X89.844 Y108.511 E266.09439
G0 F9000 X90.692 Y108.511
G1 F1500 X92.249 Y110.068 E266.24819
G0 F9000 X93.098 Y110.068
G1 F1500 X91.541 Y108.511 E266.40199
G0 F9000 X92.389 Y108.511
G1 F1500 X93.946 Y110.068 E266.55578
G0 F9000 X94.795 Y110.068
G1 F1500 X93.238 Y108.511 E266.70958
G0 F9000 X94.086 Y108.511
G1 F1500 X95.643 Y110.068 E266.86338
G0 F9000 X96.492 Y110.068
G1 F1500 X94.935 Y108.511 E267.01717
G0 F9000 X95.783 Y108.511
G1 F1500 X97.341 Y110.068 E267.17102
G0 F9000 X98.189 Y110.068
G1 F1500 X96.632 Y108.511 E267.32482
G0 F9000 X97.481 Y108.511
G1 F1500 X99.038 Y110.068 E267.47861
G0 F9000 X99.886 Y110.068
G1 F1500 X98.329 Y108.511 E267.63241
G0 F9000 X99.178 Y108.511
G1 F1500 X100.735 Y110.068 E267.78621
G0 F9000 X101.583 Y110.068
G1 F1500 X100.026 Y108.511 E267.94
G0 F9000 X100.875 Y108.511
G1 F1500 X102.432 Y110.068 E268.0938
G0 F9000 X103.28 Y110.068
G1 F1500 X101.723 Y108.511 E268.2476
G0 F9000 X102.572 Y108.511
G1 F1500 X104.129 Y110.068 E268.40139
G0 F9000 X104.977 Y110.068
G1 F1500 X103.42 Y108.511 E268.55519
G0 F9000 X104.269 Y108.511
G1 F1500 X105.826 Y110.068 E268.70899
G0 F9000 X106.674 Y110.068
G1 F1500 X105.117 Y108.511 E268.86278
G0 F9000 X105.966 Y108.511
G1 F1500 X107.523 Y110.068 E269.01658
G0 F9000 X108.371 Y110.068
G1 F1500 X106.814 Y108.511 E269.17038
G0 F9000 X107.663 Y108.511
G1 F1500 X109.22 Y110.068 E269.32417
G0 F9000 X110.068 Y110.068
G1 F1500 X108.511 Y108.511 E269.47797
G0 F9000 X109.36 Y108.511
G1 F1500 X110.917 Y110.068 E269.63177
G0 F9000 X111.766 Y110.068
G1 F1500 X110.208 Y108.511 E269.78561
G0 F9000 X111.057 Y108.511
G1 F1500 X112.614 Y110.068 E269.93941
G0 F9000 X113.463 Y110.068
G1 F1500 X111.906 Y108.511 E270.09321
G0 F9000 X112.754 Y108.511
G1 F1500 X114.311 Y110.068 E270.247
G0 F9000 X115.16 Y110.068
G1 F1500 X113.603 Y108.511 E270.4008
G0 F9000 X114.451 Y108.511
G1 F1500 X116.008 Y110.068 E270.5546
G0 F9000 X116.857 Y110.068
G1 F1500 X115.3 Y108.511 E270.70839
G0 F9000 X116.148 Y108.511
G1 F1500 X117.706 Y110.069 E270.86229
G0 F9000 X118.554 Y110.069
G1 F1500 X116.997 Y108.511 E271.01613
G0 F9000 X117.845 Y108.511
G1 F1500 X119.403 Y110.069 E271.17003
G0 F9000 X120.251 Y110.069
G1 F1500 X118.694 Y108.511 E271.32387
G0 F9000 X119.542 Y108.511
G1 F1500 X121.1 Y110.069 E271.47777
G0 F9000 X121.949 Y110.069
G1 F1500 X120.391 Y108.511 E271.63167
G0 F9000 X121.239 Y108.511
G1 F1500 X122.797 Y110.069 E271.78556
G0 F9000 X123.646 Y110.069
G1 F1500 X122.088 Y108.511 E271.93946
G0 F9000 X122.936 Y108.511
G1 F1500 X124.494 Y110.069 E272.09335
G0 F9000 X125.343 Y110.069
G1 F1500 X123.785 Y108.511 E272.24725
G0 F9000 X124.633 Y108.511
G1 F1500 X126.191 Y110.069 E272.40114
G0 F9000 X127.04 Y110.069
G1 F1500 X125.482 Y108.511 E272.55504
G0 F9000 X126.33 Y108.511
G1 F1500 X127.888 Y110.069 E272.70893
