;FLAVOR:Marlin
;TIME:11357
;Filament used: 6.75678m
;Layer height: 0.2
;MINX:33.786
;MINY:74.18
;MINZ:0.2
;MAXX:201.785
;MAXY:159.181
;MAXZ:15
;Generated with Cura_SteamEngine 5.3.1
M140 S60
M105
M190 S60
M104 S200
M105
M109 S200
M82 ;absolute extrusion mode
M201 X500.00 Y500.00 Z100.00 E5000.00 ;Setup machine max acceleration
M203 X500.00 Y500.00 Z10.00 E50.00 ;Setup machine max feedrate
M204 P500.00 R1000.00 T500.00 ;Setup Print/Retract/Travel acceleration
M205 X8.00 Y8.00 Z0.40 E5.00 ;Setup Jerk
M220 S100 ;Reset Feedrate
M221 S100 ;Reset Flowrate

G28 ;Home

G92 E0 ;Reset Extruder
G1 Z2.0 F3000 ;Move Z Axis up
G1 X10.1 Y20 Z0.28 F5000.0 ;Move to start position
G1 X10.1 Y200.0 Z0.28 F1500.0 E15 ;Draw the first line
G1 X10.4 Y200.0 Z0.28 F5000.0 ;Move to side a little
G1 X10.4 Y20 Z0.28 F1500.0 E30 ;Draw the second line
G92 E0 ;Reset Extruder
G1 Z2.0 F3000 ;Move Z Axis up

G92 E0
G92 E0
G1 F1500 E-6.5
;LAYER_COUNT:75
;LAYER:0
M107
G0 F6000 X40.778 Y95.815 Z0.2
;TYPE:SKIRT
G1 F1500 E0
G1 F1200 X41.623 Y95.496 E0.03004
G1 X42.493 Y95.253 E0.06008
G1 X43.381 Y95.089 E0.09012
G1 X44.509 Y94.994 E0.12777
G1 X45.116 Y94.981 E0.14796
G1 X107.488 Y94.98 E2.22246
G1 X110.094 Y94.943 E2.30915
G1 X112.661 Y94.834 E2.3946
G1 X115.148 Y94.658 E2.47753
G1 X117.688 Y94.405 E2.56243
G1 X120.229 Y94.08 E2.64763
G1 X122.74 Y93.686 E2.73217
G1 X125.207 Y93.228 E2.81562
G1 X127.721 Y92.687 E2.90115
G1 X130.161 Y92.089 E2.98471
G1 X132.622 Y91.411 E3.06961
G1 X135.036 Y90.672 E3.15358
G1 X137.468 Y89.852 E3.23894
G1 X139.84 Y88.976 E3.32304
G1 X142.194 Y88.031 E3.40741
G1 X144.527 Y87.016 E3.49203
G1 X146.819 Y85.942 E3.57622
G1 X149.116 Y84.785 E3.66176
G1 X151.309 Y83.601 E3.74465
G1 X153.53 Y82.319 E3.82995
G1 X155.66 Y81.009 E3.91312
G1 X159.516 Y78.441 E4.06721
G1 X159.961 Y78.158 E4.08475
G1 X160.996 Y77.536 E4.12491
G1 X161.79 Y77.106 E4.15494
G1 X162.232 Y76.904 E4.17111
G1 X163.244 Y76.474 E4.20768
G1 X163.928 Y76.202 E4.23216
G1 X165.03 Y75.835 E4.27079
G1 X165.745 Y75.648 E4.29537
G1 X166.921 Y75.376 E4.33552
G1 X168.119 Y75.174 E4.37593
G1 X168.879 Y75.099 E4.40133
G1 X170.22 Y75.008 E4.44603
G1 X170.905 Y74.985 E4.46883
G1 X180.073 Y74.98 E4.77376
G1 X181.095 Y74.997 E4.80775
G1 X181.642 Y75.021 E4.82597
G1 X182.58 Y75.091 E4.85725
G1 X183.311 Y75.16 E4.88167
G1 X184.429 Y75.329 E4.91928
G1 X185.139 Y75.484 E4.94345
G1 X186.326 Y75.779 E4.98413
G1 X187.472 Y76.137 E5.02406
G1 X188.196 Y76.419 E5.04991
G1 X189.31 Y76.892 E5.09016
G1 X190.405 Y77.437 E5.13084
G1 X191.002 Y77.787 E5.15386
G1 X192.056 Y78.444 E5.19517
G1 X193.028 Y79.132 E5.23477
G1 X193.605 Y79.605 E5.25959
G1 X194.553 Y80.43 E5.30139
G1 X195.207 Y81.052 E5.33141
G1 X195.538 Y81.413 E5.3477
G1 X196.271 Y82.257 E5.38488
G1 X196.716 Y82.794 E5.40807
G1 X197.358 Y83.658 E5.44388
G1 X197.789 Y84.325 E5.47029
G1 X198.432 Y85.394 E5.51178
G1 X199.018 Y86.521 E5.55403
G1 X199.299 Y87.17 E5.57755
G1 X199.744 Y88.271 E5.61705
G1 X200.132 Y89.426 E5.65757
G1 X200.303 Y90.083 E5.68015
G1 X200.587 Y91.305 E5.72188
G1 X200.796 Y92.543 E5.76364
G1 X200.864 Y93.248 E5.7872
G1 X200.951 Y94.467 E5.82784
G1 X200.976 Y95.028 E5.84652
G1 X200.985 Y95.583 E5.86498
G1 X200.985 Y127.584 E6.92934
G1 X200.975 Y128.311 E6.95352
G1 X200.923 Y129.213 E6.98357
G1 X200.791 Y130.106 E7.0136
G1 X200.58 Y130.985 E7.04366
G1 X200.293 Y131.841 E7.07369
G1 X199.931 Y132.668 E7.10372
G1 X199.497 Y133.46 E7.13376
G1 X198.995 Y134.211 E7.1638
G1 X198.429 Y134.914 E7.19382
G1 X197.802 Y135.565 E7.22388
G1 X197.121 Y136.157 E7.25389
G1 X196.39 Y136.687 E7.28392
G1 X195.614 Y137.15 E7.31398
G1 X194.801 Y137.543 E7.34401
G1 X193.956 Y137.863 E7.37407
G1 X193.087 Y138.106 E7.40408
G1 X192.199 Y138.271 E7.43412
G1 X191.078 Y138.367 E7.47154
G1 X190.472 Y138.38 E7.4917
G1 X128.084 Y138.381 E9.56673
G1 X125.478 Y138.418 E9.65342
G1 X122.911 Y138.527 E9.73887
G1 X120.423 Y138.703 E9.82183
G1 X117.885 Y138.956 E9.90666
G1 X115.343 Y139.281 E9.9919
G1 X112.833 Y139.675 E10.0764
G1 X110.344 Y140.137 E10.1606
G1 X107.883 Y140.665 E10.24432
G1 X105.399 Y141.276 E10.3294
G1 X102.973 Y141.944 E10.41309
G1 X100.524 Y142.694 E10.49828
G1 X98.114 Y143.507 E10.58287
G1 X95.712 Y144.393 E10.66803
G1 X93.394 Y145.323 E10.7511
G1 X91.042 Y146.346 E10.8364
G1 X88.729 Y147.431 E10.92138
G1 X86.504 Y148.551 E11.00423
G1 X84.215 Y149.787 E11.09075
G1 X82.072 Y151.024 E11.17305
G1 X79.91 Y152.354 E11.25748
G1 X76.022 Y154.943 E11.41284
G1 X75.633 Y155.189 E11.42815
G1 X74.601 Y155.811 E11.46822
G1 X73.501 Y156.386 E11.50951
G1 X72.808 Y156.688 E11.53465
G1 X71.695 Y157.138 E11.57458
G1 X70.547 Y157.525 E11.61487
G1 X69.883 Y157.698 E11.63769
G1 X68.661 Y157.982 E11.67942
G1 X67.423 Y158.191 E11.72118
G1 X66.718 Y158.259 E11.74474
G1 X65.498 Y158.346 E11.78542
G1 X64.938 Y158.371 E11.80406
G1 X64.384 Y158.38 E11.82249
G1 X55.493 Y158.381 E12.11821
G1 X54.477 Y158.364 E12.152
G1 X53.93 Y158.34 E12.17021
G1 X52.992 Y158.27 E12.2015
G1 X52.261 Y158.201 E12.22592
G1 X51.143 Y158.032 E12.26353
G1 X50.433 Y157.877 E12.2877
G1 X49.246 Y157.582 E12.32838
G1 X48.09 Y157.221 E12.36866
G1 X47.35 Y156.931 E12.39509
G1 X46.245 Y156.461 E12.43503
G1 X45.152 Y155.917 E12.47564
G1 X44.614 Y155.601 E12.49639
G1 X43.523 Y154.922 E12.53913
G1 X42.529 Y154.217 E12.57967
G1 X42.063 Y153.838 E12.59964
G1 X41.673 Y153.506 E12.61668
G1 X40.97 Y152.888 E12.64781
G1 X40.113 Y152.038 E12.68796
G1 X39.628 Y151.488 E12.71235
G1 X38.896 Y150.616 E12.75021
G1 X38.16 Y149.623 E12.79132
G1 X37.825 Y149.103 E12.8119
G1 X37.528 Y148.62 E12.83076
G1 X37.104 Y147.906 E12.85838
G1 X36.566 Y146.866 E12.89732
G1 X36.302 Y146.26 E12.91931
G1 X35.831 Y145.098 E12.96101
G1 X35.438 Y143.931 E13.00196
G1 X35.262 Y143.255 E13.0252
G1 X34.982 Y142.047 E13.06644
G1 X34.777 Y140.833 E13.10739
G1 X34.717 Y140.235 E13.12738
G1 X34.662 Y139.53 E13.1509
G1 X34.608 Y138.629 E13.18092
G1 X34.59 Y138.02 E13.20119
G1 X34.586 Y105.88 E14.27017
G1 X34.597 Y105.042 E14.29804
G1 X34.65 Y104.14 E14.32809
G1 X34.783 Y103.247 E14.35812
G1 X34.994 Y102.369 E14.38816
G1 X35.282 Y101.513 E14.41819
G1 X35.644 Y100.686 E14.44822
G1 X36.079 Y99.894 E14.47827
G1 X36.581 Y99.144 E14.50829
G1 X37.148 Y98.441 E14.53833
G1 X37.775 Y97.791 E14.56837
G1 X38.457 Y97.199 E14.59841
G1 X39.189 Y96.669 E14.62846
G1 X39.965 Y96.207 E14.6585
G1 X40.778 Y95.815 E14.68852
G0 F6000 X40.604 Y95.455
G1 F1200 X41.515 Y95.111 E14.72091
G1 X42.42 Y94.86 E14.75215
G1 X43.347 Y94.69 E14.78349
G1 X44.475 Y94.595 E14.82114
G1 X45.116 Y94.581 E14.84247
G1 X107.482 Y94.58 E16.91677
G1 X110.077 Y94.543 E17.00309
G1 X112.644 Y94.434 E17.08854
G1 X115.113 Y94.259 E17.17087
G1 X117.637 Y94.008 E17.25523
G1 X120.178 Y93.683 E17.34043
G1 X122.678 Y93.291 E17.4246
G1 X125.122 Y92.837 E17.50728
G1 X127.626 Y92.298 E17.59247
G1 X130.066 Y91.7 E17.67603
G1 X132.516 Y91.026 E17.76054
G1 X134.908 Y90.293 E17.84375
G1 X137.34 Y89.473 E17.92911
G1 X139.701 Y88.601 E18.01283
G1 X142.034 Y87.664 E18.09645
G1 X144.367 Y86.649 E18.18107
G1 X146.649 Y85.58 E18.26488
G1 X148.926 Y84.433 E18.34968
G1 X151.119 Y83.249 E18.43257
G1 X153.32 Y81.978 E18.51711
G1 X155.45 Y80.668 E18.60028
G1 X159.301 Y78.103 E18.75417
G1 X159.755 Y77.815 E18.77205
G1 X160.806 Y77.184 E18.81283
G1 X161.624 Y76.742 E18.84375
G1 X162.076 Y76.536 E18.86027
G1 X163.096 Y76.102 E18.89714
G1 X163.802 Y75.822 E18.9224
G1 X164.904 Y75.455 E18.96103
G1 X165.655 Y75.258 E18.98686
G1 X166.831 Y74.986 E19.027
G1 X168.08 Y74.776 E19.06913
G1 X168.852 Y74.7 E19.09493
G1 X170.207 Y74.608 E19.1401
G1 X170.905 Y74.585 E19.16333
G1 X180.08 Y74.58 E19.46849
G1 X181.113 Y74.597 E19.50285
G1 X181.672 Y74.622 E19.52147
G1 X182.618 Y74.693 E19.55302
G1 X183.371 Y74.764 E19.57817
G1 X184.489 Y74.933 E19.61578
G1 X185.235 Y75.096 E19.64118
G1 X186.445 Y75.397 E19.68265
G1 X187.617 Y75.764 E19.7235
G1 X188.352 Y76.051 E19.74974
G1 X189.488 Y76.534 E19.7908
G1 X190.607 Y77.092 E19.83239
G1 X191.214 Y77.448 E19.85579
G1 X192.287 Y78.118 E19.89787
G1 X193.282 Y78.823 E19.93842
G1 X193.868 Y79.303 E19.96362
G1 X194.829 Y80.14 E20.00601
G1 X195.483 Y80.762 E20.03602
G1 X195.84 Y81.151 E20.05359
G1 X196.579 Y82.002 E20.09107
G1 X197.037 Y82.555 E20.11495
G1 X197.679 Y83.419 E20.15076
G1 X198.132 Y84.119 E20.17849
G1 X198.787 Y85.209 E20.22078
G1 X199.373 Y86.336 E20.26303
G1 X199.67 Y87.02 E20.28783
G1 X200.115 Y88.121 E20.32733
G1 X200.519 Y89.325 E20.36957
G1 X200.693 Y89.992 E20.3925
G1 X200.977 Y91.214 E20.43423
G1 X201.194 Y92.505 E20.47777
G1 X201.263 Y93.22 E20.50166
G1 X201.351 Y94.449 E20.54264
G1 X201.376 Y95.022 E20.56172
G1 X201.385 Y95.577 E20.58018
G1 X201.385 Y127.59 E21.64493
G1 X201.374 Y128.334 E21.66968
G1 X201.319 Y129.271 E21.7009
G1 X201.187 Y130.164 E21.73092
G1 X200.969 Y131.078 E21.76218
G1 X200.672 Y131.968 E21.79338
G1 X200.282 Y132.86 E21.82576
G1 X199.83 Y133.682 E21.85696
G1 X199.307 Y134.462 E21.8882
G1 X198.741 Y135.165 E21.91822
G1 X198.064 Y135.867 E21.95065
G1 X197.356 Y136.481 E21.98182
G1 X196.595 Y137.031 E22.01305
G1 X195.819 Y137.494 E22.04311
G1 X194.943 Y137.917 E22.07546
G1 X194.098 Y138.237 E22.10552
G1 X193.16 Y138.499 E22.13791
G1 X192.233 Y138.67 E22.16926
G1 X191.112 Y138.766 E22.20668
G1 X190.472 Y138.78 E22.22797
G1 X128.09 Y138.781 E24.30281
G1 X125.495 Y138.818 E24.38913
G1 X122.928 Y138.927 E24.47458
G1 X120.458 Y139.102 E24.55694
G1 X117.936 Y139.353 E24.64124
G1 X115.394 Y139.678 E24.72647
G1 X112.895 Y140.07 E24.81061
G1 X110.428 Y140.528 E24.89406
G1 X107.967 Y141.056 E24.97778
G1 X105.505 Y141.662 E25.06211
G1 X103.079 Y142.329 E25.14579
G1 X100.652 Y143.073 E25.23022
G1 X98.242 Y143.886 E25.31481
G1 X95.861 Y144.764 E25.39922
G1 X93.554 Y145.69 E25.4819
G1 X91.202 Y146.713 E25.56721
G1 X88.899 Y147.793 E25.65181
G1 X86.694 Y148.903 E25.73392
G1 X84.405 Y150.139 E25.82044
G1 X82.282 Y151.365 E25.90198
G1 X80.12 Y152.695 E25.98641
G1 X76.236 Y155.281 E26.1416
G1 X75.839 Y155.532 E26.15722
G1 X74.807 Y156.154 E26.1973
G1 X73.661 Y156.753 E26.24031
G1 X72.958 Y157.059 E26.26581
G1 X71.823 Y157.517 E26.30652
G1 X70.675 Y157.904 E26.34681
G1 X69.974 Y158.088 E26.37092
G1 X68.752 Y158.372 E26.41264
G1 X67.461 Y158.589 E26.45619
G1 X66.746 Y158.658 E26.48008
G1 X65.516 Y158.746 E26.52109
G1 X64.944 Y158.771 E26.54013
G1 X64.384 Y158.78 E26.55876
G1 X55.486 Y158.781 E26.85471
G1 X54.459 Y158.764 E26.88887
G1 X53.9 Y158.739 E26.90749
G1 X52.954 Y158.668 E26.93904
G1 X52.201 Y158.597 E26.96419
G1 X51.083 Y158.428 E27.0018
G1 X50.337 Y158.265 E27.0272
G1 X49.127 Y157.964 E27.06867
G1 X47.971 Y157.603 E27.10895
G1 X47.193 Y157.299 E27.13673
G1 X46.067 Y156.819 E27.17744
G1 X44.949 Y156.262 E27.21899
G1 X44.403 Y155.941 E27.24005
G1 X43.312 Y155.262 E27.28279
G1 X42.277 Y154.527 E27.32502
G1 X41.804 Y154.143 E27.34528
G1 X41.409 Y153.806 E27.36255
G1 X40.688 Y153.172 E27.39448
G1 X39.813 Y152.303 E27.4355
G1 X39.322 Y151.745 E27.46022
G1 X38.575 Y150.854 E27.49889
G1 X37.824 Y149.84 E27.54086
G1 X37.484 Y149.313 E27.56172
G1 X37.184 Y148.824 E27.5808
G1 X36.749 Y148.09 E27.60918
G1 X36.199 Y147.026 E27.64901
G1 X35.931 Y146.41 E27.67136
G1 X35.452 Y145.226 E27.71384
G1 X35.059 Y144.059 E27.7548
G1 X34.872 Y143.345 E27.77934
G1 X34.592 Y142.137 E27.82059
G1 X34.379 Y140.873 E27.86322
G1 X34.318 Y140.266 E27.88351
G1 X34.263 Y139.554 E27.90726
G1 X34.208 Y138.641 E27.93768
G1 X34.19 Y138.02 E27.95835
G1 X34.186 Y105.875 E29.0275
G1 X34.198 Y105.019 E29.05597
G1 X34.254 Y104.081 E29.08722
G1 X34.387 Y103.188 E29.11725
G1 X34.615 Y102.241 E29.14965
G1 X34.903 Y101.385 E29.17969
G1 X35.293 Y100.493 E29.21207
G1 X35.728 Y99.701 E29.24212
G1 X36.27 Y98.893 E29.27448
G1 X36.86 Y98.163 E29.3057
G1 X37.487 Y97.513 E29.33574
G1 X38.222 Y96.875 E29.36811
G1 X38.984 Y96.325 E29.39937
G1 X39.76 Y95.863 E29.4294
G1 X40.604 Y95.455 E29.46058
G0 F6000 X40.43 Y95.095
G1 F1200 X41.408 Y94.726 E29.49535
G1 X42.348 Y94.467 E29.52778
G1 X43.313 Y94.291 E29.5604
G1 X44.441 Y94.196 E29.59805
G1 X45.116 Y94.181 E29.62051
G1 X107.476 Y94.18 E31.69461
G1 X110.06 Y94.143 E31.78057
G1 X112.627 Y94.034 E31.86602
G1 X115.078 Y93.86 E31.94775
G1 X117.586 Y93.611 E32.03157
G1 X120.127 Y93.286 E32.11678
G1 X122.616 Y92.896 E32.20057
G1 X125.037 Y92.446 E32.28247
G1 X127.531 Y91.909 E32.36732
G1 X129.971 Y91.311 E32.45088
G1 X132.41 Y90.641 E32.53501
G1 X134.78 Y89.914 E32.61746
G1 X137.212 Y89.094 E32.70282
G1 X139.562 Y88.226 E32.78615
G1 X141.874 Y87.297 E32.86902
G1 X144.207 Y86.282 E32.95364
G1 X146.479 Y85.218 E33.03708
G1 X148.736 Y84.081 E33.12114
G1 X150.929 Y82.897 E33.20403
G1 X153.11 Y81.637 E33.28781
G1 X155.24 Y80.327 E33.37098
G1 X159.087 Y77.765 E33.52471
G1 X159.549 Y77.472 E33.5429
G1 X160.616 Y76.832 E33.58428
G1 X161.458 Y76.378 E33.6161
G1 X161.919 Y76.168 E33.63295
G1 X162.949 Y75.73 E33.67018
G1 X163.676 Y75.442 E33.69618
G1 X164.778 Y75.075 E33.73482
G1 X165.565 Y74.868 E33.76188
G1 X166.741 Y74.596 E33.80203
G1 X168.041 Y74.378 E33.84587
G1 X168.825 Y74.301 E33.87207
G1 X170.194 Y74.208 E33.91771
G1 X170.905 Y74.185 E33.94137
G1 X180.087 Y74.18 E34.24677
G1 X181.131 Y74.197 E34.28149
G1 X181.702 Y74.223 E34.3005
G1 X182.656 Y74.295 E34.33232
G1 X183.431 Y74.368 E34.35822
G1 X184.549 Y74.537 E34.39582
G1 X185.332 Y74.708 E34.42248
G1 X186.565 Y75.015 E34.46474
G1 X187.737 Y75.382 E34.50559
G1 X188.509 Y75.683 E34.53315
G1 X189.667 Y76.176 E34.57501
G1 X190.786 Y76.734 E34.6166
G1 X191.426 Y77.109 E34.64127
G1 X192.518 Y77.792 E34.68411
G1 X193.513 Y78.497 E34.72467
G1 X194.131 Y79.001 E34.75119
G1 X195.105 Y79.85 E34.79417
G1 X195.759 Y80.472 E34.82418
G1 X196.142 Y80.889 E34.84302
G1 X196.887 Y81.747 E34.88081
G1 X197.358 Y82.316 E34.90538
G1 X198 Y83.18 E34.94118
G1 X198.475 Y83.913 E34.97023
G1 X199.142 Y85.024 E35.01333
G1 X199.728 Y86.151 E35.05558
G1 X200.041 Y86.87 E35.08166
G1 X200.486 Y87.971 E35.12116
G1 X200.906 Y89.224 E35.16511
G1 X201.083 Y89.901 E35.18839
G1 X201.367 Y91.123 E35.23011
G1 X201.592 Y92.467 E35.27544
G1 X201.662 Y93.191 E35.29963
G1 X201.751 Y94.432 E35.34101
G1 X201.776 Y95.016 E35.36045
G1 X201.785 Y95.571 E35.37891
G1 X201.785 Y127.596 E36.44407
G1 X201.773 Y128.357 E36.46938
G1 X201.715 Y129.329 E36.50177
G1 X201.583 Y130.222 E36.53179
G1 X201.358 Y131.171 E36.56423
G1 X201.039 Y132.128 E36.59778
G1 X200.633 Y133.053 E36.63138
G1 X200.181 Y133.875 E36.66258
G1 X199.619 Y134.713 E36.69614
G1 X199.029 Y135.443 E36.72736
G1 X198.352 Y136.145 E36.7598
G1 X197.618 Y136.783 E36.79215
G1 X196.8 Y137.375 E36.82573
G1 X196.024 Y137.838 E36.85578
G1 X195.085 Y138.291 E36.89046
G1 X194.24 Y138.611 E36.92051
G1 X193.233 Y138.892 E36.95529
G1 X192.267 Y139.069 E36.98795
G1 X191.146 Y139.165 E37.02537
G1 X190.472 Y139.18 E37.04779
G1 X128.096 Y139.181 E39.12243
G1 X125.512 Y139.218 E39.20838
G1 X122.945 Y139.327 E39.29384
G1 X120.493 Y139.501 E39.3756
G1 X117.987 Y139.75 E39.45936
G1 X115.445 Y140.075 E39.54459
G1 X112.957 Y140.465 E39.62835
G1 X110.512 Y140.919 E39.71106
G1 X108.051 Y141.447 E39.79478
G1 X105.611 Y142.048 E39.87836
G1 X103.185 Y142.714 E39.96203
G1 X100.78 Y143.452 E40.04571
G1 X98.37 Y144.265 E40.1303
G1 X96.01 Y145.135 E40.21396
G1 X93.714 Y146.057 E40.29625
G1 X91.362 Y147.08 E40.38156
G1 X89.069 Y148.155 E40.46579
G1 X86.884 Y149.255 E40.54715
G1 X84.595 Y150.491 E40.63368
G1 X82.492 Y151.706 E40.71446
G1 X80.33 Y153.036 E40.79888
G1 X76.45 Y155.619 E40.95391
G1 X76.045 Y155.875 E40.96985
G1 X75.013 Y156.497 E41.00992
G1 X73.821 Y157.12 E41.05466
G1 X73.108 Y157.43 E41.08052
G1 X71.951 Y157.896 E41.122
G1 X70.777 Y158.291 E41.1632
G1 X70.065 Y158.478 E41.18769
G1 X68.843 Y158.762 E41.22941
G1 X67.499 Y158.987 E41.27474
G1 X66.775 Y159.057 E41.29893
G1 X65.533 Y159.146 E41.34034
G1 X64.95 Y159.171 E41.35975
G1 X64.384 Y159.18 E41.37858
G1 X55.479 Y159.181 E41.67476
G1 X54.441 Y159.164 E41.70929
G1 X53.87 Y159.138 E41.7283
G1 X52.916 Y159.066 E41.76012
G1 X52.141 Y158.993 E41.78601
G1 X51.023 Y158.824 E41.82362
G1 X50.24 Y158.653 E41.85028
G1 X49.008 Y158.346 E41.89251
G1 X47.825 Y157.976 E41.93373
G1 X47.036 Y157.667 E41.96192
G1 X45.889 Y157.177 E42.0034
G1 X44.746 Y156.607 E42.04588
