;FLAVOR:Marlin
;TIME:12992
;Filament used: 9.10188m
;Layer height: 0.2
;MINX:31.5
;MINY:77.494
;MINZ:0.2
;MAXX:203.5
;MAXY:166.494
;MAXZ:18
;Generated with Cura_SteamEngine 5.3.1
M140 S60
M105
M190 S60
M104 S200
M105
M109 S200
M82 ;absolute extrusion mode
M201 X500.00 Y500.00 Z100.00 E5000.00 ;Setup machine max acceleration
M203 X500.00 Y500.00 Z10.00 E50.00 ;Setup machine max feedrate
M204 P500.00 R1000.00 T500.00 ;Setup Print/Retract/Travel acceleration
M205 X8.00 Y8.00 Z0.40 E5.00 ;Setup Jerk
M220 S100 ;Reset Feedrate
M221 S100 ;Reset Flowrate

G28 ;Home

G92 E0 ;Reset Extruder
G1 Z2.0 F3000 ;Move Z Axis up
G1 X10.1 Y20 Z0.28 F5000.0 ;Move to start position
G1 X10.1 Y200.0 Z0.28 F1500.0 E15 ;Draw the first line
G1 X10.4 Y200.0 Z0.28 F5000.0 ;Move to side a little
G1 X10.4 Y20 Z0.28 F1500.0 E30 ;Draw the second line
G92 E0 ;Reset Extruder
G1 Z2.0 F3000 ;Move Z Axis up

G92 E0
G92 E0
G1 F1500 E-6.5
;LAYER_COUNT:90
;LAYER:0
M107
G0 F6000 X43.53 Y80.407 Z0.2
;TYPE:SKIRT
G1 F1500 E0
G1 F1200 X43.989 Y80.198 E0.01677
G1 X44.8 Y79.853 E0.04609
G1 X45.664 Y79.508 E0.07703
G1 X46.767 Y79.143 E0.11567
G1 X47.485 Y78.956 E0.14035
G1 X48.633 Y78.69 E0.17954
G1 X49.809 Y78.489 E0.21923
G1 X50.41 Y78.427 E0.23932
G1 X51.151 Y78.37 E0.26404
G1 X52.053 Y78.316 E0.29409
G1 X52.659 Y78.298 E0.31426
G1 X61.789 Y78.294 E0.61792
G1 X62.643 Y78.305 E0.64633
G1 X63.177 Y78.327 E0.66411
G1 X64.332 Y78.407 E0.70261
G1 X65.029 Y78.473 E0.7259
G1 X66.157 Y78.644 E0.76385
G1 X66.92 Y78.813 E0.78984
G1 X68.088 Y79.107 E0.8299
G1 X69.228 Y79.466 E0.86965
G1 X69.905 Y79.731 E0.89383
G1 X71.015 Y80.202 E0.93394
G1 X72.089 Y80.735 E0.97381
G1 X72.8 Y81.141 E1.00105
G1 X75.159 Y82.446 E1.09071
G1 X77.405 Y83.606 E1.17479
G1 X79.696 Y84.709 E1.25936
G1 X82.012 Y85.745 E1.34375
G1 X84.344 Y86.709 E1.42767
G1 X86.758 Y87.628 E1.51359
G1 X89.126 Y88.454 E1.597
G1 X91.554 Y89.224 E1.68172
G1 X93.974 Y89.918 E1.76545
G1 X96.469 Y90.557 E1.85112
G1 X98.918 Y91.111 E1.93463
G1 X101.448 Y91.608 E2.02038
G1 X103.892 Y92.018 E2.10281
G1 X106.47 Y92.375 E2.18937
G1 X108.937 Y92.645 E2.27191
G1 X111.51 Y92.854 E2.35777
G1 X114.036 Y92.988 E2.44191
G1 X116.577 Y93.05 E2.52645
G1 X119.105 Y93.041 E2.61053
G1 X121.646 Y92.959 E2.69509
G1 X124.194 Y92.805 E2.77999
G1 X126.736 Y92.579 E2.86487
G1 X129.221 Y92.287 E2.94809
G1 X131.761 Y91.916 E3.03347
G1 X134.253 Y91.479 E3.11761
G1 X136.716 Y90.976 E3.20123
G1 X139.21 Y90.392 E3.28642
G1 X141.672 Y89.741 E3.37112
G1 X144.129 Y89.016 E3.45632
G1 X146.515 Y88.239 E3.53978
G1 X148.902 Y87.386 E3.62409
G1 X151.276 Y86.462 E3.70882
G1 X153.636 Y85.464 E3.79405
G1 X155.925 Y84.419 E3.87774
G1 X158.206 Y83.3 E3.96224
G1 X160.452 Y82.118 E4.04666
G1 X161.899 Y81.295 E4.10202
G1 X163.037 Y80.664 E4.1453
G1 X163.986 Y80.2 E4.18044
G1 X165.036 Y79.756 E4.21836
G1 X165.657 Y79.51 E4.24057
G1 X166.773 Y79.141 E4.27967
G1 X167.485 Y78.956 E4.30413
G1 X168.633 Y78.69 E4.34333
G1 X169.809 Y78.489 E4.38301
G1 X170.41 Y78.427 E4.4031
G1 X171.151 Y78.37 E4.42782
G1 X172.053 Y78.316 E4.45788
G1 X172.659 Y78.298 E4.47804
G1 X181.789 Y78.294 E4.78171
G1 X182.832 Y78.312 E4.8164
G1 X183.364 Y78.336 E4.83411
G1 X184.329 Y78.407 E4.8663
G1 X185.027 Y78.473 E4.88962
G1 X186.157 Y78.644 E4.92763
G1 X186.92 Y78.813 E4.95362
G1 X188.088 Y79.107 E4.99368
G1 X189.228 Y79.466 E5.03343
G1 X189.818 Y79.695 E5.05448
G1 X190.456 Y79.96 E5.07746
G1 X191.102 Y80.24 E5.10088
G1 X192.098 Y80.738 E5.13792
G1 X192.675 Y81.076 E5.16016
G1 X193.768 Y81.757 E5.20299
G1 X194.754 Y82.456 E5.24319
G1 X195.298 Y82.902 E5.26659
G1 X196.254 Y83.732 E5.30869
G1 X197.101 Y84.558 E5.34804
G1 X197.59 Y85.107 E5.3725
G1 X198.398 Y86.07 E5.41431
G1 X199.107 Y87.023 E5.45381
G1 X199.513 Y87.656 E5.47883
G1 X200.139 Y88.697 E5.51923
G1 X200.688 Y89.742 E5.55849
G1 X200.974 Y90.393 E5.58214
G1 X201.45 Y91.565 E5.62421
G1 X201.843 Y92.727 E5.66501
G1 X202.022 Y93.414 E5.68862
G1 X202.302 Y94.619 E5.72977
G1 X202.509 Y95.84 E5.77096
G1 X202.579 Y96.556 E5.79489
G1 X202.665 Y97.777 E5.8356
G1 X202.688 Y98.308 E5.85328
G1 X202.7 Y99.041 E5.87766
G1 X202.699 Y144.931 E7.40397
G1 X202.689 Y145.637 E7.42745
G1 X202.667 Y146.171 E7.44523
G1 X202.587 Y147.317 E7.48344
G1 X202.522 Y148.01 E7.50659
G1 X202.355 Y149.127 E7.54415
G1 X202.204 Y149.816 E7.56761
G1 X201.904 Y151.026 E7.60907
G1 X201.549 Y152.166 E7.64879
G1 X201.284 Y152.848 E7.67312
G1 X200.792 Y154.01 E7.71509
G1 X200.251 Y155.101 E7.75559
G1 X199.904 Y155.692 E7.77839
G1 X199.235 Y156.765 E7.82045
G1 X198.533 Y157.755 E7.86081
G1 X198.068 Y158.322 E7.8852
G1 X197.252 Y159.26 E7.92655
G1 X196.426 Y160.105 E7.96585
G1 X195.886 Y160.585 E7.98988
G1 X194.924 Y161.392 E8.03165
G1 X193.971 Y162.101 E8.07115
G1 X193.355 Y162.497 E8.09551
G1 X192.319 Y163.122 E8.13575
G1 X191.222 Y163.696 E8.17693
G1 X190.514 Y164.005 E8.20263
G1 X189.405 Y164.453 E8.24241
G1 X188.227 Y164.848 E8.28373
G1 X187.514 Y165.033 E8.30823
G1 X186.364 Y165.299 E8.34749
G1 X185.131 Y165.505 E8.38907
G1 X184.468 Y165.571 E8.41123
G1 X183.849 Y165.618 E8.43188
G1 X182.948 Y165.672 E8.4619
G1 X182.342 Y165.69 E8.48206
G1 X173.211 Y165.694 E8.78576
G1 X172.357 Y165.683 E8.81417
G1 X171.823 Y165.661 E8.83194
G1 X170.668 Y165.581 E8.87045
G1 X169.971 Y165.515 E8.89374
G1 X168.859 Y165.347 E8.93114
G1 X168.093 Y165.179 E8.95722
G1 X166.949 Y164.893 E8.99644
G1 X165.828 Y164.543 E9.0355
G1 X165.145 Y164.277 E9.05988
G1 X163.981 Y163.784 E9.10193
G1 X162.885 Y163.241 E9.14261
G1 X162.156 Y162.823 E9.17056
G1 X159.955 Y161.602 E9.25427
G1 X157.678 Y160.422 E9.33957
G1 X155.385 Y159.315 E9.42426
G1 X153.088 Y158.285 E9.50799
G1 X150.717 Y157.302 E9.59336
G1 X148.347 Y156.398 E9.67772
G1 X145.972 Y155.566 E9.76142
G1 X143.517 Y154.784 E9.84712
G1 X141.116 Y154.093 E9.93022
G1 X138.647 Y153.459 E10.015
G1 X136.147 Y152.89 E10.10028
G1 X133.664 Y152.399 E10.18446
G1 X131.171 Y151.979 E10.26855
G1 X128.648 Y151.626 E10.35328
G1 X126.149 Y151.35 E10.4369
G1 X123.573 Y151.138 E10.52287
G1 X121.082 Y151.004 E10.60584
G1 X118.508 Y150.937 E10.69148
G1 X115.978 Y150.945 E10.77563
G1 X113.447 Y151.023 E10.85985
G1 X110.906 Y151.175 E10.94452
G1 X108.389 Y151.395 E11.02855
G1 X105.849 Y151.691 E11.1136
G1 X103.337 Y152.056 E11.19803
G1 X100.828 Y152.493 E11.28274
G1 X98.372 Y152.991 E11.36609
G1 X95.896 Y153.569 E11.45065
G1 X93.407 Y154.225 E11.53626
G1 X91.003 Y154.93 E11.61959
G1 X88.543 Y155.729 E11.70562
G1 X86.192 Y156.566 E11.78862
G1 X83.804 Y157.492 E11.87381
G1 X81.469 Y158.476 E11.95808
G1 X79.169 Y159.524 E12.04215
G1 X76.855 Y160.656 E12.12783
G1 X74.681 Y161.798 E12.20951
G1 X73.32 Y162.572 E12.26158
G1 X71.967 Y163.322 E12.31303
G1 X71.164 Y163.723 E12.34289
G1 X70.514 Y164.005 E12.36645
G1 X69.405 Y164.453 E12.40623
G1 X68.227 Y164.848 E12.44756
G1 X67.514 Y165.033 E12.47206
G1 X66.364 Y165.299 E12.51132
G1 X65.131 Y165.505 E12.55289
G1 X64.468 Y165.571 E12.57505
G1 X63.849 Y165.618 E12.5957
G1 X62.948 Y165.672 E12.62572
G1 X62.342 Y165.69 E12.64589
G1 X53.211 Y165.694 E12.94959
G1 X52.357 Y165.683 E12.97799
G1 X51.823 Y165.661 E12.99577
G1 X50.668 Y165.581 E13.03428
G1 X49.971 Y165.515 E13.05756
G1 X48.859 Y165.347 E13.09497
G1 X48.093 Y165.179 E13.12105
G1 X46.949 Y164.893 E13.16027
G1 X45.828 Y164.543 E13.19933
G1 X45.146 Y164.278 E13.22367
G1 X43.984 Y163.786 E13.26564
G1 X42.836 Y163.212 E13.30833
G1 X42.182 Y162.826 E13.33358
G1 X41.218 Y162.223 E13.3714
G1 X40.243 Y161.53 E13.41119
G1 X39.777 Y161.151 E13.43117
G1 X39.387 Y160.819 E13.4482
G1 X38.684 Y160.201 E13.47933
G1 X37.886 Y159.416 E13.51656
G1 X37.408 Y158.879 E13.54048
G1 X36.601 Y157.917 E13.58224
G1 X35.893 Y156.965 E13.6217
G1 X35.479 Y156.319 E13.64722
G1 X34.842 Y155.256 E13.68844
G1 X34.271 Y154.158 E13.7296
G1 X33.99 Y153.51 E13.75309
G1 X33.542 Y152.402 E13.79284
G1 X33.145 Y151.215 E13.83447
G1 X32.961 Y150.504 E13.8589
G1 X32.695 Y149.352 E13.89822
G1 X32.491 Y148.146 E13.9389
G1 X32.431 Y147.548 E13.95889
G1 X32.376 Y146.843 E13.98241
G1 X32.322 Y145.942 E14.01243
G1 X32.304 Y145.333 E14.0327
G1 X32.3 Y99.202 E15.56702
G1 X32.311 Y98.35 E15.59536
G1 X32.333 Y97.816 E15.61314
G1 X32.412 Y96.677 E15.65111
G1 X32.477 Y95.98 E15.67439
G1 X32.657 Y94.801 E15.71406
G1 X32.814 Y94.095 E15.73812
G1 X33.099 Y92.951 E15.77733
G1 X33.46 Y91.798 E15.81751
G1 X33.679 Y91.232 E15.8377
G1 X33.952 Y90.571 E15.86149
G1 X34.235 Y89.915 E15.88525
G1 X34.759 Y88.87 E15.92413
G1 X35.05 Y88.371 E15.94334
G1 X35.429 Y87.753 E15.96746
G1 X35.811 Y87.151 E15.99117
G1 X36.468 Y86.232 E16.02874
G1 X36.902 Y85.703 E16.0515
G1 X37.727 Y84.751 E16.0934
G1 X38.569 Y83.888 E16.1335
G1 X39.113 Y83.404 E16.15772
G1 X40.076 Y82.596 E16.19953
G1 X41.047 Y81.875 E16.23976
G1 X41.683 Y81.468 E16.26487
G1 X42.735 Y80.837 E16.30567
G1 X43.53 Y80.407 E16.33573
G0 F6000 X43.364 Y80.043
G1 F1200 X43.832 Y79.83 E16.35283
G1 X44.652 Y79.482 E16.38246
G1 X45.538 Y79.128 E16.4142
G1 X46.641 Y78.763 E16.45284
G1 X47.395 Y78.566 E16.47876
G1 X48.543 Y78.3 E16.51795
G1 X49.768 Y78.091 E16.55929
G1 X50.379 Y78.028 E16.57971
G1 X51.127 Y77.971 E16.60467
G1 X52.041 Y77.916 E16.63512
G1 X52.659 Y77.898 E16.65568
G1 X61.794 Y77.894 E16.95952
G1 X62.659 Y77.905 E16.98829
G1 X63.205 Y77.928 E17.00646
G1 X64.37 Y78.009 E17.04531
G1 X65.089 Y78.078 E17.06933
G1 X66.244 Y78.253 E17.10818
G1 X67.018 Y78.425 E17.13455
G1 X68.208 Y78.725 E17.17537
G1 X69.348 Y79.084 E17.21512
G1 X70.061 Y79.363 E17.24059
G1 X71.193 Y79.844 E17.2815
G1 X72.287 Y80.388 E17.32214
G1 X72.994 Y80.791 E17.3492
G1 X75.353 Y82.096 E17.43887
G1 X77.579 Y83.246 E17.5222
G1 X79.868 Y84.348 E17.6067
G1 X82.165 Y85.375 E17.69038
G1 X84.497 Y86.339 E17.77431
G1 X86.89 Y87.25 E17.85948
G1 X89.258 Y88.076 E17.94289
G1 X91.664 Y88.839 E18.02684
G1 X94.084 Y89.534 E18.11059
G1 X96.557 Y90.167 E18.19549
G1 X99.006 Y90.721 E18.279
G1 X101.52 Y91.215 E18.36422
G1 X103.947 Y91.622 E18.44607
G1 X106.514 Y91.977 E18.53226
G1 X108.98 Y92.247 E18.61477
G1 X111.542 Y92.456 E18.70026
G1 X114.046 Y92.588 E18.78366
G1 X116.586 Y92.65 E18.86817
G1 X119.092 Y92.641 E18.95152
G1 X121.633 Y92.559 E19.03608
G1 X124.17 Y92.406 E19.12061
G1 X126.689 Y92.182 E19.20472
G1 X129.163 Y91.891 E19.28758
G1 X131.703 Y91.52 E19.37295
G1 X134.175 Y91.086 E19.45643
G1 X136.636 Y90.584 E19.53997
G1 X139.108 Y90.005 E19.62441
G1 X141.562 Y89.356 E19.70884
G1 X144.016 Y88.632 E19.79394
G1 X146.38 Y87.862 E19.87663
G1 X148.767 Y87.009 E19.96094
G1 X151.131 Y86.089 E20.04531
G1 X153.47 Y85.1 E20.12977
G1 X155.759 Y84.055 E20.21347
G1 X158.03 Y82.941 E20.2976
G1 X160.254 Y81.77 E20.3812
G1 X161.705 Y80.945 E20.43671
G1 X162.861 Y80.305 E20.48066
G1 X163.83 Y79.832 E20.51652
G1 X164.889 Y79.384 E20.55477
G1 X165.531 Y79.13 E20.57773
G1 X166.647 Y78.761 E20.61683
G1 X167.395 Y78.566 E20.64254
G1 X168.543 Y78.3 E20.68173
G1 X169.768 Y78.091 E20.72306
G1 X170.379 Y78.028 E20.74349
G1 X171.127 Y77.971 E20.76844
G1 X172.041 Y77.916 E20.7989
G1 X172.659 Y77.898 E20.81946
G1 X181.796 Y77.894 E21.12336
G1 X182.85 Y77.912 E21.15842
G1 X183.393 Y77.937 E21.1765
G1 X184.367 Y78.009 E21.20898
G1 X185.087 Y78.078 E21.23304
G1 X186.244 Y78.253 E21.27196
G1 X187.018 Y78.425 E21.29833
G1 X188.208 Y78.725 E21.33915
G1 X189.348 Y79.084 E21.3789
G1 X189.971 Y79.326 E21.40113
G1 X190.615 Y79.593 E21.42432
G1 X191.281 Y79.882 E21.44847
G1 X192.277 Y80.38 E21.4855
G1 X192.887 Y80.737 E21.50901
G1 X193.999 Y81.431 E21.55261
G1 X195.008 Y82.147 E21.59376
G1 X195.56 Y82.6 E21.61751
G1 X196.533 Y83.446 E21.66039
G1 X197.4 Y84.292 E21.70068
G1 X197.896 Y84.85 E21.72551
G1 X198.719 Y85.831 E21.7681
G1 X199.444 Y86.807 E21.80854
G1 X199.856 Y87.45 E21.83394
G1 X200.493 Y88.511 E21.8751
G1 X201.054 Y89.581 E21.91529
G1 X201.345 Y90.242 E21.93931
G1 X201.821 Y91.414 E21.98138
G1 X202.222 Y92.599 E22.02299
G1 X202.412 Y93.323 E22.04788
G1 X202.692 Y94.528 E22.08903
G1 X202.907 Y95.801 E22.13197
G1 X202.978 Y96.528 E22.15627
G1 X203.065 Y97.76 E22.19734
G1 X203.088 Y98.301 E22.21535
G1 X203.1 Y99.041 E22.23997
G1 X203.099 Y144.937 E23.76648
G1 X203.089 Y145.653 E23.79029
G1 X203.066 Y146.199 E23.80847
G1 X202.985 Y147.354 E23.84698
G1 X202.918 Y148.069 E23.87086
G1 X202.746 Y149.213 E23.90934
G1 X202.592 Y149.912 E23.93315
G1 X202.286 Y151.145 E23.9754
G1 X201.922 Y152.311 E24.01603
G1 X201.652 Y153.004 E24.04077
G1 X201.15 Y154.188 E24.08354
G1 X200.596 Y155.304 E24.12498
G1 X200.243 Y155.904 E24.14813
G1 X199.561 Y156.996 E24.19095
G1 X198.842 Y158.009 E24.23227
G1 X198.37 Y158.585 E24.25704
G1 X197.538 Y159.54 E24.29917
G1 X196.692 Y160.404 E24.33939
G1 X196.143 Y160.891 E24.36379
G1 X195.163 Y161.713 E24.40634
G1 X194.21 Y162.422 E24.44584
G1 X193.562 Y162.84 E24.47149
G1 X192.526 Y163.465 E24.51173
G1 X191.382 Y164.063 E24.55467
G1 X190.664 Y164.376 E24.58072
G1 X189.555 Y164.824 E24.6205
G1 X188.327 Y165.235 E24.66357
G1 X187.604 Y165.423 E24.68842
G1 X186.43 Y165.694 E24.72849
G1 X185.197 Y165.9 E24.77007
G1 X184.498 Y165.97 E24.79344
G1 X183.873 Y166.017 E24.81428
G1 X182.96 Y166.072 E24.8447
G1 X182.354 Y166.09 E24.86487
G1 X173.206 Y166.094 E25.16913
G1 X172.341 Y166.083 E25.1979
G1 X171.795 Y166.06 E25.21608
G1 X170.63 Y165.979 E25.25492
G1 X169.911 Y165.911 E25.27894
G1 X168.799 Y165.743 E25.31635
G1 X167.996 Y165.567 E25.34369
G1 X166.83 Y165.275 E25.38367
G1 X165.683 Y164.916 E25.42364
G1 X164.989 Y164.645 E25.44842
G1 X163.803 Y164.142 E25.49127
G1 X162.686 Y163.588 E25.53274
G1 X161.957 Y163.17 E25.56069
G1 X159.761 Y161.952 E25.64421
G1 X157.494 Y160.777 E25.72914
G1 X155.221 Y159.68 E25.81308
G1 X152.935 Y158.655 E25.89641
G1 X150.564 Y157.672 E25.98178
G1 X148.204 Y156.772 E26.06579
G1 X145.84 Y155.944 E26.1491
G1 X143.396 Y155.165 E26.23441
G1 X141.005 Y154.477 E26.31716
G1 X138.558 Y153.849 E26.40119
G1 X136.058 Y153.28 E26.48647
G1 X133.586 Y152.791 E26.57028
G1 X131.116 Y152.375 E26.65359
G1 X128.604 Y152.024 E26.73795
G1 X126.108 Y151.748 E26.82147
G1 X123.54 Y151.536 E26.90718
G1 X121.072 Y151.404 E26.98938
G1 X118.499 Y151.337 E27.07499
G1 X115.99 Y151.345 E27.15844
G1 X113.459 Y151.423 E27.24266
G1 X110.93 Y151.574 E27.32692
G1 X108.435 Y151.792 E27.41022
G1 X105.907 Y152.087 E27.49487
G1 X103.395 Y152.452 E27.5793
G1 X100.897 Y152.887 E27.66364
G1 X98.463 Y153.381 E27.74624
G1 X95.987 Y153.959 E27.83081
G1 X93.52 Y154.609 E27.91566
G1 X91.116 Y155.314 E27.99899
G1 X88.677 Y156.106 E28.08428
G1 X86.337 Y156.939 E28.16689
G1 X83.959 Y157.861 E28.25172
G1 X81.624 Y158.845 E28.336
G1 X79.335 Y159.888 E28.41966
G1 X77.031 Y161.015 E28.50497
G1 X74.879 Y162.146 E28.58583
G1 X73.514 Y162.922 E28.63805
G1 X72.146 Y163.68 E28.69007
G1 X71.323 Y164.09 E28.72065
G1 X70.664 Y164.376 E28.74454
G1 X69.555 Y164.824 E28.78432
G1 X68.327 Y165.235 E28.82739
G1 X67.604 Y165.423 E28.85224
G1 X66.43 Y165.694 E28.89232
G1 X65.197 Y165.9 E28.93389
G1 X64.498 Y165.97 E28.95726
G1 X63.873 Y166.017 E28.9781
G1 X62.96 Y166.072 E29.00853
G1 X62.342 Y166.09 E29.02909
G1 X53.206 Y166.094 E29.33295
G1 X52.341 Y166.083 E29.36173
G1 X51.795 Y166.06 E29.3799
G1 X50.63 Y165.979 E29.41874
G1 X49.911 Y165.911 E29.44277
G1 X48.799 Y165.743 E29.48017
G1 X47.996 Y165.567 E29.50751
G1 X46.83 Y165.275 E29.54749
G1 X45.683 Y164.916 E29.58747
G1 X44.99 Y164.646 E29.6122
G1 X43.805 Y164.144 E29.65501
G1 X42.657 Y163.57 E29.6977
G1 X41.97 Y163.165 E29.72422
G1 X40.986 Y162.549 E29.76283
G1 X40.011 Y161.856 E29.80262
G1 X39.518 Y161.456 E29.82373
G1 X39.123 Y161.119 E29.841
G1 X38.403 Y160.486 E29.87289
G1 X37.587 Y159.682 E29.91099
G1 X37.102 Y159.136 E29.93528
G1 X36.28 Y158.156 E29.97782
G1 X35.556 Y157.181 E30.01821
G1 X35.136 Y156.525 E30.04412
G1 X34.487 Y155.441 E30.08614
G1 X33.916 Y154.343 E30.12731
G1 X33.619 Y153.66 E30.15208
G1 X33.171 Y152.552 E30.19183
G1 X32.758 Y151.315 E30.2352
G1 X32.571 Y150.594 E30.25998
G1 X32.305 Y149.442 E30.2993
G1 X32.093 Y148.186 E30.34167
G1 X32.032 Y147.579 E30.36196
G1 X31.977 Y146.867 E30.38571
G1 X31.922 Y145.954 E30.41613
G1 X31.904 Y145.333 E30.43679
G1 X31.9 Y99.197 E31.97128
G1 X31.911 Y98.334 E31.99999
G1 X31.934 Y97.788 E32.01817
G1 X32.014 Y96.64 E32.05644
G1 X32.082 Y95.92 E32.0805
