;FLAVOR:Marlin
;TIME:4086
;Filament used: 2.96428m
;Layer height: 0.2
;MINX:97
;MINY:36.886
;MINZ:0.2
;MAXX:138
;MAXY:200.886
;MAXZ:6
;Generated with Cura_SteamEngine 5.3.1
M140 S60
M105
M190 S60
M104 S200
M105
M109 S200
M82 ;absolute extrusion mode
M201 X500.00 Y500.00 Z100.00 E5000.00 ;Setup machine max acceleration
M203 X500.00 Y500.00 Z10.00 E50.00 ;Setup machine max feedrate
M204 P500.00 R1000.00 T500.00 ;Setup Print/Retract/Travel acceleration
M205 X8.00 Y8.00 Z0.40 E5.00 ;Setup Jerk
M220 S100 ;Reset Feedrate
M221 S100 ;Reset Flowrate

G28 ;Home

G92 E0 ;Reset Extruder
G1 Z2.0 F3000 ;Move Z Axis up
G1 X10.1 Y20 Z0.28 F5000.0 ;Move to start position
G1 X10.1 Y200.0 Z0.28 F1500.0 E15 ;Draw the first line
G1 X10.4 Y200.0 Z0.28 F5000.0 ;Move to side a little
G1 X10.4 Y20 Z0.28 F1500.0 E30 ;Draw the second line
G92 E0 ;Reset Extruder
G1 Z2.0 F3000 ;Move Z Axis up

G92 E0
G92 E0
G1 F1500 E-6.5
;LAYER_COUNT:30
;LAYER:0
M107
G0 F6000 X98.853 Y43.4 Z0.2
;TYPE:SKIRT
G1 F1500 E0
G1 F1200 X99.286 Y42.608 E0.03002
G1 X99.788 Y41.857 E0.06007
G1 X100.355 Y41.153 E0.09013
G1 X100.981 Y40.503 E0.12015
G1 X101.662 Y39.91 E0.15018
G1 X102.394 Y39.38 E0.18024
G1 X103.169 Y38.917 E0.21026
G1 X103.982 Y38.524 E0.2403
G1 X104.827 Y38.204 E0.27035
G1 X105.696 Y37.961 E0.30036
G1 X106.584 Y37.795 E0.33041
G1 X107.723 Y37.699 E0.36843
G1 X108.33 Y37.686 E0.38862
G1 X126.293 Y37.686 E0.98607
G1 X127.137 Y37.697 E1.01415
G1 X128.039 Y37.75 E1.0442
G1 X128.932 Y37.882 E1.07422
G1 X129.81 Y38.093 E1.10426
G1 X130.666 Y38.381 E1.1343
G1 X131.493 Y38.743 E1.16432
G1 X132.285 Y39.178 E1.19438
G1 X133.036 Y39.68 E1.22442
G1 X133.739 Y40.247 E1.25446
G1 X134.389 Y40.874 E1.2845
G1 X134.981 Y41.556 E1.31454
G1 X135.511 Y42.287 E1.34457
G1 X135.973 Y43.063 E1.3746
G1 X136.366 Y43.876 E1.40464
G1 X136.684 Y44.721 E1.43467
G1 X136.927 Y45.591 E1.46471
G1 X137.092 Y46.479 E1.49475
G1 X137.187 Y47.609 E1.53247
G1 X137.2 Y48.216 E1.55266
G1 X137.199 Y189.276 E6.24434
G1 X137.19 Y190.003 E6.26852
G1 X137.139 Y190.905 E6.29857
G1 X137.008 Y191.799 E6.32862
G1 X136.799 Y192.677 E6.35864
G1 X136.513 Y193.534 E6.38869
G1 X136.152 Y194.362 E6.41873
G1 X135.72 Y195.154 E6.44874
G1 X135.219 Y195.906 E6.47879
G1 X134.653 Y196.61 E6.50883
G1 X134.028 Y197.261 E6.53885
G1 X133.347 Y197.855 E6.56891
G1 X132.616 Y198.386 E6.59896
G1 X131.842 Y198.85 E6.62897
G1 X131.029 Y199.244 E6.65902
G1 X130.185 Y199.564 E6.68904
G1 X129.315 Y199.809 E6.7191
G1 X128.428 Y199.975 E6.74912
G1 X127.277 Y200.073 E6.78754
G1 X126.67 Y200.086 E6.80773
G1 X108.575 Y200.085 E7.40957
G1 X107.877 Y200.076 E7.43279
G1 X106.976 Y200.025 E7.46281
G1 X106.082 Y199.893 E7.49286
G1 X105.204 Y199.684 E7.52288
G1 X104.347 Y199.397 E7.55294
G1 X103.52 Y199.036 E7.58295
G1 X102.727 Y198.603 E7.613
G1 X101.976 Y198.102 E7.64303
G1 X101.272 Y197.536 E7.67308
G1 X100.621 Y196.91 E7.70311
G1 X100.028 Y196.229 E7.73315
G1 X99.498 Y195.498 E7.76318
G1 X99.034 Y194.723 E7.79322
G1 X98.64 Y193.91 E7.82327
G1 X98.32 Y193.066 E7.85329
G1 X98.076 Y192.196 E7.88335
G1 X97.91 Y191.308 E7.91339
G1 X97.813 Y190.153 E7.95194
G1 X97.8 Y189.544 E7.9722
G1 X97.801 Y48.422 E12.66594
G1 X97.81 Y47.757 E12.68806
G1 X97.862 Y46.855 E12.71811
G1 X97.994 Y45.962 E12.74813
G1 X98.204 Y45.084 E12.77816
G1 X98.491 Y44.227 E12.80822
G1 X98.853 Y43.4 E12.83825
G0 F6000 X98.502 Y43.208
G1 F1200 X98.953 Y42.386 E12.86943
G1 X99.476 Y41.606 E12.90067
G1 X100.043 Y40.902 E12.93073
G1 X100.718 Y40.201 E12.9631
G1 X101.399 Y39.608 E12.99313
G1 X102.159 Y39.056 E13.02437
G1 X102.995 Y38.557 E13.05676
G1 X103.84 Y38.15 E13.08795
G1 X104.685 Y37.83 E13.118
G1 X105.622 Y37.568 E13.15036
G1 X106.55 Y37.396 E13.18175
G1 X107.689 Y37.3 E13.21977
G1 X108.321 Y37.286 E13.2408
G1 X126.298 Y37.286 E13.83871
G1 X127.16 Y37.298 E13.86739
G1 X128.097 Y37.354 E13.89861
G1 X128.99 Y37.486 E13.92863
G1 X129.938 Y37.714 E13.96106
G1 X130.794 Y38.002 E13.9911
G1 X131.686 Y38.392 E14.02348
G1 X132.478 Y38.827 E14.05353
G1 X133.258 Y39.347 E14.08471
G1 X134.017 Y39.959 E14.11714
G1 X134.667 Y40.586 E14.14718
G1 X135.305 Y41.321 E14.17955
G1 X135.855 Y42.082 E14.21078
G1 X136.317 Y42.858 E14.24082
G1 X136.74 Y43.735 E14.2732
G1 X137.069 Y44.613 E14.30439
G1 X137.32 Y45.518 E14.33563
G1 X137.491 Y46.445 E14.36698
G1 X137.586 Y47.575 E14.40469
G1 X137.6 Y48.216 E14.42602
G1 X137.599 Y189.281 E19.11786
G1 X137.589 Y190.026 E19.14264
G1 X137.535 Y190.963 E19.17386
G1 X137.404 Y191.857 E19.20391
G1 X137.188 Y192.77 E19.23511
G1 X136.88 Y193.694 E19.26751
G1 X136.519 Y194.522 E19.29755
G1 X136.053 Y195.376 E19.32991
G1 X135.531 Y196.157 E19.36115
G1 X134.965 Y196.861 E19.3912
G1 X134.317 Y197.538 E19.42237
G1 X133.582 Y198.179 E19.45481
G1 X132.851 Y198.71 E19.48486
G1 X132.048 Y199.193 E19.51602
G1 X131.171 Y199.618 E19.54844
G1 X130.327 Y199.938 E19.57846
G1 X129.389 Y200.202 E19.61087
G1 X128.462 Y200.374 E19.64223
G1 X127.311 Y200.472 E19.68065
G1 X126.67 Y200.486 E19.70197
G1 X108.57 Y200.485 E20.30398
G1 X107.854 Y200.475 E20.3278
G1 X106.918 Y200.421 E20.35898
G1 X106.024 Y200.289 E20.38904
G1 X105.111 Y200.073 E20.42024
G1 X104.187 Y199.764 E20.45265
G1 X103.36 Y199.403 E20.48266
G1 X102.505 Y198.936 E20.51506
G1 X101.725 Y198.414 E20.54628
G1 X101.021 Y197.848 E20.57632
G1 X100.319 Y197.173 E20.60871
G1 X99.726 Y196.492 E20.63875
G1 X99.174 Y195.733 E20.66996
G1 X98.674 Y194.897 E20.70236
G1 X98.266 Y194.052 E20.73357
G1 X97.946 Y193.208 E20.76359
G1 X97.683 Y192.27 E20.79599
G1 X97.511 Y191.341 E20.82742
G1 X97.413 Y190.162 E20.86677
G1 X97.4 Y189.544 E20.88733
G1 X97.401 Y48.417 E25.58123
G1 X97.411 Y47.734 E25.60395
G1 X97.466 Y46.797 E25.63517
G1 X97.598 Y45.904 E25.66519
G1 X97.815 Y44.991 E25.6964
G1 X98.112 Y44.1 E25.72764
G1 X98.502 Y43.208 E25.76002
G0 F6000 X98.135 Y43.048
G1 F1200 X98.602 Y42.194 E25.79239
G1 X99.164 Y41.355 E25.82598
G1 X99.731 Y40.651 E25.85605
G1 X100.455 Y39.899 E25.89077
G1 X101.136 Y39.306 E25.9208
G1 X101.924 Y38.732 E25.95323
G1 X102.821 Y38.197 E25.98796
G1 X103.698 Y37.776 E26.02032
G1 X104.543 Y37.456 E26.05037
G1 X105.549 Y37.175 E26.08511
G1 X106.516 Y36.997 E26.11782
G1 X107.655 Y36.901 E26.15583
G1 X108.312 Y36.886 E26.17769
G1 X126.304 Y36.886 E26.77611
G1 X127.184 Y36.899 E26.80538
G1 X128.155 Y36.958 E26.83773
G1 X129.084 Y37.097 E26.86898
G1 X130.032 Y37.325 E26.90141
G1 X130.954 Y37.635 E26.93376
G1 X131.879 Y38.041 E26.96736
G1 X132.671 Y38.476 E26.99741
G1 X133.48 Y39.014 E27.02973
G1 X134.295 Y39.671 E27.06454
G1 X134.945 Y40.298 E27.09458
G1 X135.607 Y41.059 E27.12813
G1 X136.199 Y41.877 E27.16171
G1 X136.661 Y42.653 E27.19175
G1 X137.115 Y43.595 E27.22653
G1 X137.444 Y44.473 E27.25772
G1 X137.713 Y45.445 E27.29126
G1 X137.89 Y46.411 E27.32393
G1 X137.985 Y47.541 E27.36164
G1 X138 Y48.216 E27.3841
G1 X137.999 Y189.286 E32.07611
G1 X137.988 Y190.049 E32.10149
G1 X137.931 Y191.021 E32.13387
G1 X137.8 Y191.915 E32.16392
G1 X137.577 Y192.862 E32.19628
G1 X137.247 Y193.854 E32.23105
G1 X136.886 Y194.682 E32.2611
G1 X136.386 Y195.598 E32.29581
G1 X135.843 Y196.408 E32.32824
G1 X135.277 Y197.112 E32.35828
G1 X134.606 Y197.815 E32.39061
G1 X133.817 Y198.503 E32.42542
G1 X133.086 Y199.034 E32.45548
G1 X132.254 Y199.536 E32.48779
G1 X131.313 Y199.992 E32.52257
G1 X130.469 Y200.312 E32.5526
G1 X129.497 Y200.587 E32.58619
G1 X128.496 Y200.773 E32.62006
G1 X127.345 Y200.871 E32.65848
G1 X126.67 Y200.886 E32.68093
G1 X108.564 Y200.885 E33.28314
G1 X107.831 Y200.874 E33.30752
G1 X106.86 Y200.817 E33.33988
G1 X105.966 Y200.685 E33.36993
G1 X104.984 Y200.452 E33.4035
G1 X104.027 Y200.131 E33.43707
G1 X103.2 Y199.77 E33.46709
G1 X102.313 Y199.287 E33.50068
G1 X101.474 Y198.726 E33.53425
G1 X100.77 Y198.16 E33.56429
G1 X100.017 Y197.436 E33.59903
G1 X99.424 Y196.755 E33.62907
G1 X98.831 Y195.938 E33.66264
G1 X98.314 Y195.071 E33.69622
G1 X97.892 Y194.194 E33.72859
G1 X97.572 Y193.35 E33.75861
G1 X97.298 Y192.378 E33.7922
G1 X97.112 Y191.374 E33.82616
G1 X97.014 Y190.195 E33.86551
G1 X97 Y189.544 E33.88717
G1 X97.001 Y48.411 E38.58127
G1 X97.012 Y47.711 E38.60456
G1 X97.07 Y46.739 E38.63694
G1 X97.202 Y45.846 E38.66697
G1 X97.426 Y44.899 E38.69933
G1 X97.745 Y43.94 E38.73295
G1 X98.135 Y43.048 E38.76533
G1 F1500 E32.26533
;MESH:base(3mm)_mold.STL
G0 F6000 X107.335 Y48.306
G0 X126.4 Y189.286
;TYPE:WALL-INNER
G1 F1500 E38.76533
G1 F1200 X126.4 Y48.486 E43.44835
G1 X108.6 Y48.486 E44.04038
G1 X108.6 Y189.286 E48.72341
G1 X126.4 Y189.286 E49.31544
G0 F6000 X126.8 Y189.686
;TYPE:WALL-OUTER
G1 F1200 X126.8 Y48.086 E54.02508
G1 X108.2 Y48.086 E54.64372
G1 X108.2 Y189.686 E59.35335
G1 X126.8 Y189.686 E59.97199
G0 F6000 X126.53 Y189.416
G0 X126.3 Y188.926
G0 X126.04 Y188.926
;TYPE:SKIN
G1 F1200 X108.96 Y188.926 E60.54007
G1 X108.96 Y48.846 E65.19915
G1 X126.04 Y48.846 E65.76723
G1 X126.04 Y188.926 E70.42631
G0 F6000 X126.3 Y188.926
G0 X109.529 Y189.186
G0 X109.529 Y188.725
G1 F1200 X109.159 Y188.355 E70.44372
G0 F6000 X109.159 Y187.789
G1 F1200 X110.095 Y188.725 E70.48774
G0 F6000 X110.66 Y188.725
G1 F1200 X109.159 Y187.224 E70.55835
G0 F6000 X109.159 Y186.658
G1 F1200 X111.226 Y188.725 E70.65557
G0 F6000 X111.792 Y188.725
G1 F1200 X109.159 Y186.092 E70.77942
G0 F6000 X109.159 Y185.527
G1 F1200 X112.357 Y188.725 E70.92984
G0 F6000 X112.923 Y188.725
G1 F1200 X109.159 Y184.961 E71.10689
G0 F6000 X109.159 Y184.395
G1 F1200 X113.489 Y188.725 E71.31056
G0 F6000 X114.054 Y188.725
G1 F1200 X109.159 Y183.83 E71.54081
G0 F6000 X109.159 Y183.264
G1 F1200 X114.62 Y188.725 E71.79768
G0 F6000 X115.186 Y188.725
G1 F1200 X109.159 Y182.698 E72.08117
G0 F6000 X109.159 Y182.133
G1 F1200 X115.751 Y188.725 E72.39124
G0 F6000 X116.317 Y188.725
G1 F1200 X109.159 Y181.567 E72.72793
G0 F6000 X109.159 Y181.001
G1 F1200 X116.883 Y188.725 E73.09124
G0 F6000 X117.449 Y188.725
G1 F1200 X109.159 Y180.435 E73.48118
G0 F6000 X109.159 Y179.87
G1 F1200 X118.014 Y188.725 E73.89769
G0 F6000 X118.58 Y188.725
G1 F1200 X109.159 Y179.304 E74.34082
G0 F6000 X109.159 Y178.738
G1 F1200 X119.146 Y188.725 E74.81058
G0 F6000 X119.711 Y188.725
G1 F1200 X109.159 Y178.173 E75.30691
G0 F6000 X109.159 Y177.607
G1 F1200 X120.277 Y188.725 E75.82987
G0 F6000 X120.843 Y188.725
G1 F1200 X109.159 Y177.041 E76.37945
G0 F6000 X109.159 Y176.476
G1 F1200 X121.408 Y188.725 E76.95561
G0 F6000 X121.974 Y188.725
G1 F1200 X109.159 Y175.91 E77.55838
G0 F6000 X109.159 Y175.344
G1 F1200 X122.54 Y188.725 E78.18778
G0 F6000 X123.105 Y188.725
G1 F1200 X109.159 Y174.779 E78.84376
G0 F6000 X109.159 Y174.213
G1 F1200 X123.671 Y188.725 E79.52636
G0 F6000 X124.237 Y188.725
G1 F1200 X109.159 Y173.647 E80.23558
G0 F6000 X109.159 Y173.082
G1 F1200 X124.802 Y188.725 E80.97138
G0 F6000 X125.368 Y188.725
G1 F1200 X109.159 Y172.516 E81.73381
G0 F6000 X109.159 Y171.95
G1 F1200 X125.839 Y188.63 E82.51838
G0 F6000 X125.839 Y188.064
G1 F1200 X109.159 Y171.385 E83.30293
G0 F6000 X109.159 Y170.819
G1 F1200 X125.839 Y187.499 E84.08751
G0 F6000 X125.839 Y186.933
G1 F1200 X109.159 Y170.253 E84.87209
G0 F6000 X109.159 Y169.687
G1 F1200 X125.839 Y186.367 E85.65666
G0 F6000 X125.839 Y185.802
G1 F1200 X109.159 Y169.122 E86.44124
G0 F6000 X109.159 Y168.556
G1 F1200 X125.839 Y185.236 E87.22581
G0 F6000 X125.839 Y184.67
G1 F1200 X109.159 Y167.99 E88.01039
G0 F6000 X109.159 Y167.425
G1 F1200 X125.839 Y184.105 E88.79497
G0 F6000 X125.839 Y183.539
G1 F1200 X109.159 Y166.859 E89.57954
G0 F6000 X109.159 Y166.293
G1 F1200 X125.839 Y182.973 E90.36412
G0 F6000 X125.839 Y182.408
G1 F1200 X109.159 Y165.728 E91.14869
G0 F6000 X109.159 Y165.162
G1 F1200 X125.839 Y181.842 E91.93327
G0 F6000 X125.839 Y181.276
G1 F1200 X109.159 Y164.596 E92.71785
G0 F6000 X109.159 Y164.031
G1 F1200 X125.839 Y180.711 E93.50242
G0 F6000 X125.839 Y180.145
G1 F1200 X109.159 Y163.465 E94.287
G0 F6000 X109.159 Y162.899
G1 F1200 X125.839 Y179.579 E95.07157
G0 F6000 X125.839 Y179.013
G1 F1200 X109.159 Y162.334 E95.85613
G0 F6000 X109.159 Y161.768
G1 F1200 X125.839 Y178.448 E96.6407
G0 F6000 X125.839 Y177.882
G1 F1200 X109.159 Y161.202 E97.42528
G0 F6000 X109.159 Y160.636
G1 F1200 X125.839 Y177.316 E98.20986
G0 F6000 X125.839 Y176.751
G1 F1200 X109.159 Y160.071 E98.99443
G0 F6000 X109.159 Y159.505
G1 F1200 X125.839 Y176.185 E99.77901
G0 F6000 X125.839 Y175.619
G1 F1200 X109.159 Y158.939 E100.56358
G0 F6000 X109.159 Y158.374
G1 F1200 X125.839 Y175.054 E101.34816
G0 F6000 X125.839 Y174.488
G1 F1200 X109.159 Y157.808 E102.13274
G0 F6000 X109.159 Y157.242
G1 F1200 X125.839 Y173.922 E102.91731
G0 F6000 X125.839 Y173.357
G1 F1200 X109.159 Y156.677 E103.70189
G0 F6000 X109.159 Y156.111
G1 F1200 X125.839 Y172.791 E104.48646
G0 F6000 X125.839 Y172.225
G1 F1200 X109.159 Y155.545 E105.27104
G0 F6000 X109.159 Y154.98
G1 F1200 X125.839 Y171.66 E106.05562
G0 F6000 X125.839 Y171.094
G1 F1200 X109.159 Y154.414 E106.84019
G0 F6000 X109.159 Y153.848
G1 F1200 X125.839 Y170.528 E107.62477
G0 F6000 X125.839 Y169.963
G1 F1200 X109.159 Y153.283 E108.40934
G0 F6000 X109.159 Y152.717
G1 F1200 X125.839 Y169.397 E109.19392
G0 F6000 X125.839 Y168.831
G1 F1200 X109.159 Y152.151 E109.9785
G0 F6000 X109.159 Y151.586
G1 F1200 X125.839 Y168.265 E110.76305
G0 F6000 X125.839 Y167.7
G1 F1200 X109.159 Y151.02 E111.54762
G0 F6000 X109.159 Y150.454
G1 F1200 X125.839 Y167.134 E112.3322
G0 F6000 X125.839 Y166.568
G1 F1200 X109.159 Y149.888 E113.11678
G0 F6000 X109.159 Y149.323
G1 F1200 X125.839 Y166.003 E113.90135
G0 F6000 X125.839 Y165.437
G1 F1200 X109.159 Y148.757 E114.68593
G0 F6000 X109.159 Y148.191
G1 F1200 X125.839 Y164.871 E115.47051
G0 F6000 X125.839 Y164.306
G1 F1200 X109.159 Y147.626 E116.25508
G0 F6000 X109.159 Y147.06
G1 F1200 X125.839 Y163.74 E117.03966
G0 F6000 X125.839 Y163.174
G1 F1200 X109.159 Y146.494 E117.82423
G0 F6000 X109.159 Y145.929
G1 F1200 X125.839 Y162.609 E118.60881
G0 F6000 X125.839 Y162.043
G1 F1200 X109.159 Y145.363 E119.39339
G0 F6000 X109.159 Y144.797
G1 F1200 X125.839 Y161.477 E120.17796
G0 F6000 X125.839 Y160.912
G1 F1200 X109.159 Y144.232 E120.96254
G0 F6000 X109.159 Y143.666
G1 F1200 X125.839 Y160.346 E121.74711
G0 F6000 X125.839 Y159.78
G1 F1200 X109.159 Y143.1 E122.53169
G0 F6000 X109.159 Y142.535
G1 F1200 X125.839 Y159.214 E123.31624
G0 F6000 X125.839 Y158.649
G1 F1200 X109.159 Y141.969 E124.10082
G0 F6000 X109.159 Y141.403
G1 F1200 X125.839 Y158.083 E124.88539
G0 F6000 X125.839 Y157.517
G1 F1200 X109.159 Y140.837 E125.66997
G0 F6000 X109.159 Y140.272
G1 F1200 X125.839 Y156.952 E126.45455
G0 F6000 X125.839 Y156.386
G1 F1200 X109.159 Y139.706 E127.23912
G0 F6000 X109.159 Y139.14
G1 F1200 X125.839 Y155.82 E128.0237
G0 F6000 X125.839 Y155.255
G1 F1200 X109.159 Y138.575 E128.80827
G0 F6000 X109.159 Y138.009
G1 F1200 X125.839 Y154.689 E129.59285
G0 F6000 X125.839 Y154.123
G1 F1200 X109.159 Y137.443 E130.37743
G0 F6000 X109.159 Y136.878
G1 F1200 X125.839 Y153.558 E131.162
G0 F6000 X125.839 Y152.992
G1 F1200 X109.159 Y136.312 E131.94658
G0 F6000 X109.159 Y135.746
G1 F1200 X125.839 Y152.426 E132.73115
G0 F6000 X125.839 Y151.861
G1 F1200 X109.159 Y135.181 E133.51573
G0 F6000 X109.159 Y134.615
G1 F1200 X125.839 Y151.295 E134.30031
G0 F6000 X125.839 Y150.729
G1 F1200 X109.159 Y134.049 E135.08488
G0 F6000 X109.159 Y133.484
G1 F1200 X125.839 Y150.164 E135.86946
G0 F6000 X125.839 Y149.598
G1 F1200 X109.159 Y132.918 E136.65404
G0 F6000 X109.159 Y132.352
G1 F1200 X125.839 Y149.032 E137.43861
G0 F6000 X125.839 Y148.466
G1 F1200 X109.159 Y131.787 E138.22316
G0 F6000 X109.159 Y131.221
G1 F1200 X125.839 Y147.901 E139.00774
G0 F6000 X125.839 Y147.335
G1 F1200 X109.159 Y130.655 E139.79232
G0 F6000 X109.159 Y130.089
G1 F1200 X125.839 Y146.769 E140.57689
G0 F6000 X125.839 Y146.204
G1 F1200 X109.159 Y129.524 E141.36147
G0 F6000 X109.159 Y128.958
G1 F1200 X125.839 Y145.638 E142.14604
G0 F6000 X125.839 Y145.072
G1 F1200 X109.159 Y128.392 E142.93062
G0 F6000 X109.159 Y127.827
G1 F1200 X125.839 Y144.507 E143.7152
G0 F6000 X125.839 Y143.941
G1 F1200 X109.159 Y127.261 E144.49977
G0 F6000 X109.159 Y126.695
G1 F1200 X125.839 Y143.375 E145.28435
G0 F6000 X125.839 Y142.81
G1 F1200 X109.159 Y126.13 E146.06892
G0 F6000 X109.159 Y125.564
G1 F1200 X125.839 Y142.244 E146.8535
