;FLAVOR:Marlin
;TIME:3712
;Filament used: 2.739m
;Layer height: 0.2
;MINX:87.824
;MINY:35.5
;MINZ:0.2
;MAXX:128.824
;MAXY:199.5
;MAXZ:5
;Generated with Cura_SteamEngine 5.3.1
M140 S60
M105
M190 S60
M104 S200
M105
M109 S200
M82 ;absolute extrusion mode
M201 X500.00 Y500.00 Z100.00 E5000.00 ;Setup machine max acceleration
M203 X500.00 Y500.00 Z10.00 E50.00 ;Setup machine max feedrate
M204 P500.00 R1000.00 T500.00 ;Setup Print/Retract/Travel acceleration
M205 X8.00 Y8.00 Z0.40 E5.00 ;Setup Jerk
M220 S100 ;Reset Feedrate
M221 S100 ;Reset Flowrate

G28 ;Home

G92 E0 ;Reset Extruder
G1 Z2.0 F3000 ;Move Z Axis up
G1 X10.1 Y20 Z0.28 F5000.0 ;Move to start position
G1 X10.1 Y200.0 Z0.28 F1500.0 E15 ;Draw the first line
G1 X10.4 Y200.0 Z0.28 F5000.0 ;Move to side a little
G1 X10.4 Y20 Z0.28 F1500.0 E30 ;Draw the second line
G92 E0 ;Reset Extruder
G1 Z2.0 F3000 ;Move Z Axis up

G92 E0
G92 E0
G1 F1500 E-6.5
;LAYER_COUNT:25
;LAYER:0
M107
G0 F6000 X89.677 Y42.014 Z0.2
;TYPE:SKIRT
G1 F1500 E0
G1 F1200 X90.11 Y41.222 E0.03002
G1 X90.612 Y40.471 E0.06007
G1 X91.179 Y39.767 E0.09013
G1 X91.805 Y39.117 E0.12015
G1 X92.486 Y38.524 E0.15018
G1 X93.218 Y37.994 E0.18024
G1 X93.993 Y37.531 E0.21026
G1 X94.806 Y37.138 E0.2403
G1 X95.651 Y36.818 E0.27035
G1 X96.52 Y36.575 E0.30036
G1 X97.408 Y36.409 E0.33041
G1 X98.547 Y36.313 E0.36843
G1 X99.154 Y36.3 E0.38862
G1 X117.117 Y36.3 E0.98607
G1 X117.961 Y36.311 E1.01415
G1 X118.863 Y36.364 E1.0442
G1 X119.756 Y36.496 E1.07422
G1 X120.634 Y36.707 E1.10426
G1 X121.49 Y36.995 E1.1343
G1 X122.317 Y37.357 E1.16432
G1 X123.109 Y37.792 E1.19438
G1 X123.86 Y38.294 E1.22442
G1 X124.563 Y38.861 E1.25446
G1 X125.213 Y39.488 E1.2845
G1 X125.805 Y40.17 E1.31454
G1 X126.335 Y40.901 E1.34457
G1 X126.797 Y41.677 E1.3746
G1 X127.19 Y42.49 E1.40464
G1 X127.508 Y43.335 E1.43467
G1 X127.751 Y44.205 E1.46471
G1 X127.916 Y45.093 E1.49475
G1 X128.011 Y46.223 E1.53247
G1 X128.024 Y46.83 E1.55266
G1 X128.023 Y187.89 E6.24434
G1 X128.014 Y188.617 E6.26852
G1 X127.963 Y189.519 E6.29857
G1 X127.832 Y190.413 E6.32862
G1 X127.623 Y191.291 E6.35864
G1 X127.337 Y192.148 E6.38869
G1 X126.976 Y192.976 E6.41873
G1 X126.544 Y193.768 E6.44874
G1 X126.043 Y194.52 E6.47879
G1 X125.477 Y195.224 E6.50883
G1 X124.852 Y195.875 E6.53885
G1 X124.171 Y196.469 E6.56891
G1 X123.44 Y197 E6.59896
G1 X122.666 Y197.464 E6.62897
G1 X121.853 Y197.858 E6.65902
G1 X121.009 Y198.178 E6.68904
G1 X120.139 Y198.423 E6.7191
G1 X119.252 Y198.589 E6.74912
G1 X118.101 Y198.687 E6.78754
G1 X117.494 Y198.7 E6.80773
G1 X99.399 Y198.699 E7.40957
G1 X98.701 Y198.69 E7.43279
G1 X97.8 Y198.639 E7.46281
G1 X96.906 Y198.507 E7.49286
G1 X96.028 Y198.298 E7.52288
G1 X95.171 Y198.011 E7.55294
G1 X94.344 Y197.65 E7.58295
G1 X93.551 Y197.217 E7.613
G1 X92.8 Y196.716 E7.64303
G1 X92.096 Y196.15 E7.67308
G1 X91.445 Y195.524 E7.70311
G1 X90.852 Y194.843 E7.73315
G1 X90.322 Y194.112 E7.76318
G1 X89.858 Y193.337 E7.79322
G1 X89.464 Y192.524 E7.82327
G1 X89.144 Y191.68 E7.85329
G1 X88.9 Y190.81 E7.88335
G1 X88.734 Y189.922 E7.91339
G1 X88.637 Y188.767 E7.95194
G1 X88.624 Y188.158 E7.9722
G1 X88.625 Y47.036 E12.66594
G1 X88.634 Y46.371 E12.68806
G1 X88.686 Y45.469 E12.71811
G1 X88.818 Y44.576 E12.74813
G1 X89.028 Y43.698 E12.77816
G1 X89.315 Y42.841 E12.80822
G1 X89.677 Y42.014 E12.83825
G0 F6000 X89.326 Y41.822
G1 F1200 X89.777 Y41 E12.86943
G1 X90.3 Y40.22 E12.90067
G1 X90.867 Y39.516 E12.93073
G1 X91.542 Y38.815 E12.9631
G1 X92.223 Y38.222 E12.99313
G1 X92.983 Y37.67 E13.02437
G1 X93.819 Y37.171 E13.05676
G1 X94.664 Y36.764 E13.08795
G1 X95.509 Y36.444 E13.118
G1 X96.446 Y36.182 E13.15036
G1 X97.374 Y36.01 E13.18175
G1 X98.513 Y35.914 E13.21977
G1 X99.145 Y35.9 E13.2408
G1 X117.122 Y35.9 E13.83871
G1 X117.984 Y35.912 E13.86739
G1 X118.921 Y35.968 E13.89861
G1 X119.814 Y36.1 E13.92863
G1 X120.762 Y36.328 E13.96106
G1 X121.618 Y36.616 E13.9911
G1 X122.51 Y37.006 E14.02348
G1 X123.302 Y37.441 E14.05353
G1 X124.082 Y37.961 E14.08471
G1 X124.841 Y38.573 E14.11714
G1 X125.491 Y39.2 E14.14718
G1 X126.129 Y39.935 E14.17955
G1 X126.679 Y40.696 E14.21078
G1 X127.141 Y41.472 E14.24082
G1 X127.564 Y42.349 E14.2732
G1 X127.893 Y43.227 E14.30439
G1 X128.144 Y44.132 E14.33563
G1 X128.315 Y45.059 E14.36698
G1 X128.41 Y46.189 E14.40469
G1 X128.424 Y46.83 E14.42602
G1 X128.423 Y187.895 E19.11786
G1 X128.413 Y188.64 E19.14264
G1 X128.359 Y189.577 E19.17386
G1 X128.228 Y190.471 E19.20391
G1 X128.012 Y191.384 E19.23511
G1 X127.704 Y192.308 E19.26751
G1 X127.343 Y193.136 E19.29755
G1 X126.877 Y193.99 E19.32991
G1 X126.355 Y194.771 E19.36115
G1 X125.789 Y195.475 E19.3912
G1 X125.141 Y196.152 E19.42237
G1 X124.406 Y196.793 E19.45481
G1 X123.675 Y197.324 E19.48486
G1 X122.872 Y197.807 E19.51602
G1 X121.995 Y198.232 E19.54844
G1 X121.151 Y198.552 E19.57846
G1 X120.213 Y198.816 E19.61087
G1 X119.286 Y198.988 E19.64223
G1 X118.135 Y199.086 E19.68065
G1 X117.494 Y199.1 E19.70197
G1 X99.394 Y199.099 E20.30398
G1 X98.678 Y199.089 E20.3278
G1 X97.742 Y199.035 E20.35898
G1 X96.848 Y198.903 E20.38904
G1 X95.935 Y198.687 E20.42024
G1 X95.011 Y198.378 E20.45265
G1 X94.184 Y198.017 E20.48266
G1 X93.329 Y197.55 E20.51506
G1 X92.549 Y197.028 E20.54628
G1 X91.845 Y196.462 E20.57632
G1 X91.143 Y195.787 E20.60871
G1 X90.55 Y195.106 E20.63875
G1 X89.998 Y194.347 E20.66996
G1 X89.498 Y193.511 E20.70236
G1 X89.09 Y192.666 E20.73357
G1 X88.77 Y191.822 E20.76359
G1 X88.507 Y190.884 E20.79599
G1 X88.335 Y189.955 E20.82742
G1 X88.237 Y188.776 E20.86677
G1 X88.224 Y188.158 E20.88733
G1 X88.225 Y47.031 E25.58123
G1 X88.235 Y46.348 E25.60395
G1 X88.29 Y45.411 E25.63517
G1 X88.422 Y44.518 E25.66519
G1 X88.639 Y43.605 E25.6964
G1 X88.936 Y42.714 E25.72764
G1 X89.326 Y41.822 E25.76002
G0 F6000 X88.959 Y41.662
G1 F1200 X89.426 Y40.808 E25.79239
G1 X89.988 Y39.969 E25.82598
G1 X90.555 Y39.265 E25.85605
G1 X91.279 Y38.513 E25.89077
G1 X91.96 Y37.92 E25.9208
G1 X92.748 Y37.346 E25.95323
G1 X93.645 Y36.811 E25.98796
G1 X94.522 Y36.39 E26.02032
G1 X95.367 Y36.07 E26.05037
G1 X96.373 Y35.789 E26.08511
G1 X97.34 Y35.611 E26.11782
G1 X98.479 Y35.515 E26.15583
G1 X99.136 Y35.5 E26.17769
G1 X117.128 Y35.5 E26.77611
G1 X118.008 Y35.513 E26.80538
G1 X118.979 Y35.572 E26.83773
G1 X119.908 Y35.711 E26.86898
G1 X120.856 Y35.939 E26.90141
G1 X121.778 Y36.249 E26.93376
G1 X122.703 Y36.655 E26.96736
G1 X123.495 Y37.09 E26.99741
G1 X124.304 Y37.628 E27.02973
G1 X125.119 Y38.285 E27.06454
G1 X125.769 Y38.912 E27.09458
G1 X126.431 Y39.673 E27.12813
G1 X127.023 Y40.491 E27.16171
G1 X127.485 Y41.267 E27.19175
G1 X127.939 Y42.209 E27.22653
G1 X128.268 Y43.087 E27.25772
G1 X128.537 Y44.059 E27.29126
G1 X128.714 Y45.025 E27.32393
G1 X128.809 Y46.155 E27.36164
G1 X128.824 Y46.83 E27.3841
G1 X128.823 Y187.9 E32.07611
G1 X128.812 Y188.663 E32.10149
G1 X128.755 Y189.635 E32.13387
G1 X128.624 Y190.529 E32.16392
G1 X128.401 Y191.476 E32.19628
G1 X128.071 Y192.468 E32.23105
G1 X127.71 Y193.296 E32.2611
G1 X127.21 Y194.212 E32.29581
G1 X126.667 Y195.022 E32.32824
G1 X126.101 Y195.726 E32.35828
G1 X125.43 Y196.429 E32.39061
G1 X124.641 Y197.117 E32.42542
G1 X123.91 Y197.648 E32.45548
G1 X123.078 Y198.15 E32.48779
G1 X122.137 Y198.606 E32.52257
G1 X121.293 Y198.926 E32.5526
G1 X120.321 Y199.201 E32.58619
G1 X119.32 Y199.387 E32.62006
G1 X118.169 Y199.485 E32.65848
G1 X117.494 Y199.5 E32.68093
G1 X99.388 Y199.499 E33.28314
G1 X98.655 Y199.488 E33.30752
G1 X97.684 Y199.431 E33.33988
G1 X96.79 Y199.299 E33.36993
G1 X95.808 Y199.066 E33.4035
G1 X94.851 Y198.745 E33.43707
G1 X94.024 Y198.384 E33.46709
G1 X93.137 Y197.901 E33.50068
G1 X92.298 Y197.34 E33.53425
G1 X91.594 Y196.774 E33.56429
G1 X90.841 Y196.05 E33.59903
G1 X90.248 Y195.369 E33.62907
G1 X89.655 Y194.552 E33.66264
G1 X89.138 Y193.685 E33.69622
G1 X88.716 Y192.808 E33.72859
G1 X88.396 Y191.964 E33.75861
G1 X88.122 Y190.992 E33.7922
G1 X87.936 Y189.988 E33.82616
G1 X87.838 Y188.809 E33.86551
G1 X87.824 Y188.158 E33.88717
G1 X87.825 Y47.025 E38.58127
G1 X87.836 Y46.325 E38.60456
G1 X87.894 Y45.353 E38.63694
G1 X88.026 Y44.46 E38.66697
G1 X88.25 Y43.513 E38.69933
G1 X88.569 Y42.554 E38.73295
G1 X88.959 Y41.662 E38.76533
G1 F1500 E32.26533
;MESH:base(2mm)_mold.STL
G0 F6000 X98.159 Y46.92
G0 X117.224 Y187.9
;TYPE:WALL-INNER
G1 F1500 E38.76533
G1 F1200 X117.224 Y47.1 E43.44835
G1 X99.424 Y47.1 E44.04038
G1 X99.424 Y187.9 E48.72341
G1 X117.224 Y187.9 E49.31544
G0 F6000 X117.624 Y188.3
;TYPE:WALL-OUTER
G1 F1200 X117.624 Y46.7 E54.02508
G1 X99.024 Y46.7 E54.64372
G1 X99.024 Y188.3 E59.35335
G1 X117.624 Y188.3 E59.97199
G0 F6000 X117.354 Y188.03
G0 X117.124 Y187.54
G0 X116.864 Y187.54
;TYPE:SKIN
G1 F1200 X99.784 Y187.54 E60.54007
G1 X99.784 Y47.46 E65.19915
G1 X116.864 Y47.46 E65.76723
G1 X116.864 Y187.54 E70.42631
G0 F6000 X117.124 Y187.54
G0 X100.223 Y187.8
G0 X100.223 Y187.339
G1 F1200 X99.983 Y187.099 E70.4376
G0 F6000 X99.983 Y186.533
G1 F1200 X100.789 Y187.339 E70.47551
G0 F6000 X101.355 Y187.339
G1 F1200 X99.983 Y185.967 E70.54005
G0 F6000 X99.983 Y185.401
G1 F1200 X101.92 Y187.339 E70.63118
G0 F6000 X102.486 Y187.339
G1 F1200 X99.983 Y184.836 E70.74892
G0 F6000 X99.983 Y184.27
G1 F1200 X103.052 Y187.339 E70.89327
G0 F6000 X103.618 Y187.339
G1 F1200 X99.983 Y183.704 E71.06425
G0 F6000 X99.983 Y183.139
G1 F1200 X104.183 Y187.339 E71.26181
G0 F6000 X104.749 Y187.339
G1 F1200 X99.983 Y182.573 E71.48599
G0 F6000 X99.983 Y182.007
G1 F1200 X105.315 Y187.339 E71.73679
G0 F6000 X105.88 Y187.339
G1 F1200 X99.983 Y181.442 E72.01416
G0 F6000 X99.983 Y180.876
G1 F1200 X106.446 Y187.339 E72.31816
G0 F6000 X107.012 Y187.339
G1 F1200 X99.983 Y180.31 E72.64879
G0 F6000 X99.983 Y179.745
G1 F1200 X107.577 Y187.339 E73.00598
G0 F6000 X108.143 Y187.339
G1 F1200 X99.983 Y179.179 E73.38981
G0 F6000 X99.983 Y178.613
G1 F1200 X108.709 Y187.339 E73.80025
G0 F6000 X109.274 Y187.339
G1 F1200 X99.983 Y178.048 E74.23727
G0 F6000 X99.983 Y177.482
G1 F1200 X109.84 Y187.339 E74.70091
G0 F6000 X110.406 Y187.339
G1 F1200 X99.983 Y176.916 E75.19118
G0 F6000 X99.983 Y176.351
G1 F1200 X110.971 Y187.339 E75.70802
G0 F6000 X111.537 Y187.339
G1 F1200 X99.983 Y175.785 E76.25149
G0 F6000 X99.983 Y175.219
G1 F1200 X112.103 Y187.339 E76.82157
G0 F6000 X112.668 Y187.339
G1 F1200 X99.983 Y174.653 E77.41826
G0 F6000 X99.983 Y174.088
G1 F1200 X113.234 Y187.339 E78.04155
G0 F6000 X113.8 Y187.339
G1 F1200 X99.983 Y173.522 E78.69146
G0 F6000 X99.983 Y172.956
G1 F1200 X114.366 Y187.339 E79.36799
G0 F6000 X114.931 Y187.339
G1 F1200 X99.983 Y172.391 E80.0711
G0 F6000 X99.983 Y171.825
G1 F1200 X115.497 Y187.339 E80.80083
G0 F6000 X116.063 Y187.339
G1 F1200 X99.983 Y171.259 E81.55718
G0 F6000 X99.983 Y170.694
G1 F1200 X116.628 Y187.339 E82.34011
G0 F6000 X116.664 Y186.809
G1 F1200 X99.983 Y170.128 E83.12473
G0 F6000 X99.983 Y169.562
G1 F1200 X116.664 Y186.243 E83.90936
G0 F6000 X116.664 Y185.677
G1 F1200 X99.983 Y168.997 E84.69396
G0 F6000 X99.983 Y168.431
G1 F1200 X116.664 Y185.112 E85.47858
G0 F6000 X116.664 Y184.546
G1 F1200 X99.983 Y167.865 E86.2632
G0 F6000 X99.983 Y167.3
G1 F1200 X116.664 Y183.98 E87.0478
G0 F6000 X116.664 Y183.415
G1 F1200 X99.983 Y166.734 E87.83243
G0 F6000 X99.983 Y166.168
G1 F1200 X116.664 Y182.849 E88.61705
G0 F6000 X116.664 Y182.283
G1 F1200 X99.983 Y165.602 E89.40167
G0 F6000 X99.983 Y165.037
G1 F1200 X116.664 Y181.717 E90.18627
G0 F6000 X116.664 Y181.152
G1 F1200 X99.983 Y164.471 E90.97089
G0 F6000 X99.983 Y163.905
G1 F1200 X116.664 Y180.586 E91.75552
G0 F6000 X116.664 Y180.02
G1 F1200 X99.983 Y163.34 E92.54012
G0 F6000 X99.983 Y162.774
G1 F1200 X116.664 Y179.455 E93.32474
G0 F6000 X116.664 Y178.889
G1 F1200 X99.983 Y162.208 E94.10936
G0 F6000 X99.983 Y161.643
G1 F1200 X116.664 Y178.323 E94.89396
G0 F6000 X116.664 Y177.758
G1 F1200 X99.983 Y161.077 E95.67859
G0 F6000 X99.983 Y160.511
G1 F1200 X116.664 Y177.192 E96.46321
G0 F6000 X116.664 Y176.626
G1 F1200 X99.983 Y159.946 E97.24781
G0 F6000 X99.983 Y159.38
G1 F1200 X116.664 Y176.061 E98.03243
G0 F6000 X116.664 Y175.495
G1 F1200 X99.983 Y158.814 E98.81706
G0 F6000 X99.983 Y158.249
G1 F1200 X116.664 Y174.929 E99.60165
G0 F6000 X116.664 Y174.364
G1 F1200 X99.983 Y157.683 E100.38628
G0 F6000 X99.983 Y157.117
G1 F1200 X116.664 Y173.798 E101.1709
G0 F6000 X116.664 Y173.232
G1 F1200 X99.983 Y156.552 E101.9555
G0 F6000 X99.983 Y155.986
G1 F1200 X116.664 Y172.666 E102.7401
G0 F6000 X116.664 Y172.101
G1 F1200 X99.983 Y155.42 E103.52472
G0 F6000 X99.983 Y154.854
G1 F1200 X116.664 Y171.535 E104.30935
G0 F6000 X116.664 Y170.969
G1 F1200 X99.983 Y154.289 E105.09395
G0 F6000 X99.983 Y153.723
G1 F1200 X116.664 Y170.404 E105.87857
G0 F6000 X116.664 Y169.838
G1 F1200 X99.983 Y153.157 E106.66319
G0 F6000 X99.983 Y152.592
G1 F1200 X116.664 Y169.272 E107.44779
G0 F6000 X116.664 Y168.707
G1 F1200 X99.983 Y152.026 E108.23241
G0 F6000 X99.983 Y151.46
G1 F1200 X116.664 Y168.141 E109.01704
G0 F6000 X116.664 Y167.575
G1 F1200 X99.983 Y150.895 E109.80164
G0 F6000 X99.983 Y150.329
G1 F1200 X116.664 Y167.01 E110.58626
G0 F6000 X116.664 Y166.444
G1 F1200 X99.983 Y149.763 E111.37088
G0 F6000 X99.983 Y149.198
G1 F1200 X116.664 Y165.878 E112.15548
G0 F6000 X116.664 Y165.313
G1 F1200 X99.983 Y148.632 E112.94011
G0 F6000 X99.983 Y148.066
G1 F1200 X116.664 Y164.747 E113.72473
G0 F6000 X116.664 Y164.181
G1 F1200 X99.983 Y147.501 E114.50933
G0 F6000 X99.983 Y146.935
G1 F1200 X116.664 Y163.616 E115.29395
G0 F6000 X116.664 Y163.05
G1 F1200 X99.983 Y146.369 E116.07858
G0 F6000 X99.983 Y145.804
G1 F1200 X116.664 Y162.484 E116.86317
G0 F6000 X116.664 Y161.918
G1 F1200 X99.983 Y145.238 E117.64777
G0 F6000 X99.983 Y144.672
G1 F1200 X116.664 Y161.353 E118.4324
G0 F6000 X116.664 Y160.787
G1 F1200 X99.983 Y144.106 E119.21702
G0 F6000 X99.983 Y143.541
G1 F1200 X116.664 Y160.221 E120.00162
G0 F6000 X116.664 Y159.656
G1 F1200 X99.983 Y142.975 E120.78624
G0 F6000 X99.983 Y142.409
G1 F1200 X116.664 Y159.09 E121.57087
G0 F6000 X116.664 Y158.524
G1 F1200 X99.983 Y141.844 E122.35547
G0 F6000 X99.983 Y141.278
G1 F1200 X116.664 Y157.959 E123.14009
G0 F6000 X116.664 Y157.393
G1 F1200 X99.983 Y140.712 E123.92471
G0 F6000 X99.983 Y140.147
G1 F1200 X116.664 Y156.827 E124.70931
G0 F6000 X116.664 Y156.262
G1 F1200 X99.983 Y139.581 E125.49393
G0 F6000 X99.983 Y139.015
G1 F1200 X116.664 Y155.696 E126.27856
G0 F6000 X116.664 Y155.13
G1 F1200 X99.983 Y138.45 E127.06316
G0 F6000 X99.983 Y137.884
G1 F1200 X116.664 Y154.565 E127.84778
G0 F6000 X116.664 Y153.999
G1 F1200 X99.983 Y137.318 E128.6324
G0 F6000 X99.983 Y136.753
G1 F1200 X116.664 Y153.433 E129.417
G0 F6000 X116.664 Y152.868
G1 F1200 X99.983 Y136.187 E130.20163
G0 F6000 X99.983 Y135.621
G1 F1200 X116.664 Y152.302 E130.98625
G0 F6000 X116.664 Y151.736
G1 F1200 X99.983 Y135.055 E131.77087
G0 F6000 X99.983 Y134.49
G1 F1200 X116.664 Y151.17 E132.55547
G0 F6000 X116.664 Y150.605
G1 F1200 X99.983 Y133.924 E133.3401
G0 F6000 X99.983 Y133.358
G1 F1200 X116.664 Y150.039 E134.12472
G0 F6000 X116.664 Y149.473
G1 F1200 X99.983 Y132.793 E134.90932
G0 F6000 X99.983 Y132.227
G1 F1200 X116.664 Y148.908 E135.69394
G0 F6000 X116.664 Y148.342
G1 F1200 X99.983 Y131.661 E136.47856
G0 F6000 X99.983 Y131.096
G1 F1200 X116.664 Y147.776 E137.26316
G0 F6000 X116.664 Y147.211
G1 F1200 X99.983 Y130.53 E138.04779
G0 F6000 X99.983 Y129.964
G1 F1200 X116.664 Y146.645 E138.83241
G0 F6000 X116.664 Y146.079
G1 F1200 X99.983 Y129.399 E139.61701
G0 F6000 X99.983 Y128.833
G1 F1200 X116.664 Y145.514 E140.40163
G0 F6000 X116.664 Y144.948
G1 F1200 X99.983 Y128.267 E141.18626
G0 F6000 X99.983 Y127.702
G1 F1200 X116.664 Y144.382 E141.97086
G0 F6000 X116.664 Y143.817
G1 F1200 X99.983 Y127.136 E142.75548
G0 F6000 X99.983 Y126.57
G1 F1200 X116.664 Y143.251 E143.5401
G0 F6000 X116.664 Y142.685
G1 F1200 X99.983 Y126.005 E144.3247
G0 F6000 X99.983 Y125.439
G1 F1200 X116.664 Y142.119 E145.1093
G0 F6000 X116.664 Y141.554
G1 F1200 X99.983 Y124.873 E145.89392
G0 F6000 X99.983 Y124.307
G1 F1200 X116.664 Y140.988 E146.67855
G0 F6000 X116.664 Y140.422
G1 F1200 X99.983 Y123.742 E147.46315
G0 F6000 X99.983 Y123.176
G1 F1200 X116.664 Y139.857 E148.24777
G0 F6000 X116.664 Y139.291
G1 F1200 X99.983 Y122.61 E149.03239
